-----BEGIN PGP MESSAGE-----

hQEMAxQEj7YH6J2JAQf+NOHQcWAWoObITTlEwK3MiL6c1H3pD8twuSp2EPjp0jUD
ZqCo76uObdef6oFnUDxuKCIR+l6NSHQiy8YkZWtwV0DdH638ZrN/qnKwu3YnUApd
6nkfrHx26Hk66nxPmn9yI2/SnzLgIlsqDHmIonhXcS/TvHYNA/pNQ84YtLjl7K4F
jf6iuxVWTT4/jRnOKSjMtb2ivGPwmWflBBPDDo6ZR7QYqb1lbqg6njk2jU1ottSM
x4PsYPioF5+fdqzsMe8iW04516FsskwgTyvAcACJunpidwH3WBdsuZjm84CngCvP
W5M1nBR9ADRvUP1sKsNO01l9NC2fLAopnosAO8bGcdLqAfpV3WSWICyPPbkwZy10
qtpAtvX71hYMm8UkkeUyY63KHiTCNnXKSbUsDW1euXqW5F3HWxWuTxsDZ6M976qe
bofMN0216jGX0FBjGttJllObY/Sr6aPyM6j9zZGSrRE23VR3InC3n8I/u9kJaPjD
r3sGs/JGF4DtEivoxLOF9qxtUdqGt5iDxRC8YSCI4f5Kuf5tCiNk5BbdQRKcMM5p
GBSZsk9tAn9Bo03BrG0ryPB2mAEdQqOYuwtrVGnFI9cnj+MFLzwoB3jnt3oZ9+Ow
a/Wa8SYB/KaL+UKBzLO7FwN4mdsmVW95wi04PfoxT+XNG9zlkWlcuLICuh5E/+ht
j/g6Ha9BD5gLtehsa0Cd92GeIvH2HrCGhwN8W/NRDUup7QuM69MswYbzQxRnd/qy
VwUlUciqcje/3c9658sVRYZeZ4hUy44aVt3h0+tk/C/ogVCAMp5S68qbk5kxJFej
KMgG9nBr2NGRxJA4hyvuBwi2w8tYI/C1MShgcYOUgjKW5slOZszBYQMwPfXAhYrx
tkcJWMrG45vWZnnYxHKvdrhNcFAuKQfYmhTdFci6FEwL0nrrCUSZeZ+ePUoO5MZA
akgLOkAXJheOMcGvSE5qY91O8PJalpPycahYHwihl+L4rpcgPB2Rtlw5bQXzyrnr
rmsx5qnhTyCAYe+GHNbXflVkrHcC4Uu9Rw4KwSJTATxZrtdY2cckOM93nYPqS6dP
yT9AjmUgDjbOTkccloMgfMgBA9zufIO6o3bxaZroGW/uRwKd5+FkCqMD3iwJIsaS
jEHhljInIdYmQ3kEBi3ccOcUNg77C+yHdJ+nxakmUemtD8s3CPnDmqoEGqDWKhcN
RSHewezNu/LkC5TnSAKbvlIVSKUJ4b+lUlqCgBwGmk3wm0V4KXfFHalnqZISh10t
LaJFEDDFV86EtITMtvTVGDJsWRbW3ztv/HlvdTuNW4A0VVIpxlJp2FGOnE6BASZW
Ojj1Yj8pTd1iAAHe5gIE/iJ8zDk/Fb4yoYCshE9tE47aPC7RmHSlJeAnADYWyiI4
Lcwrd/QsgzuQKhUHuKfWChYkmj79Z3tL1788WAz7yZ45+Gs0eKnHiknXGUkvkoMn
vxGAgK38ArPGeAT5h/HyZoMZctTeyPo63SgefJzAHpNeE8DT7I65LWAb/l4qo+EM
gE+JQSUcKbbbub4ujxqTBR4IBCfMBggHd8SrtsRo2hZCpD8Q7oPRKdHLNc7sDybb
xJVEn7DChzRr1FIErl73NH/9qsAxvcZPceuXQY1d1d/VuTPbqKq6avd09FVdjm3Z
Mal7INZiTNWdlFvOjJAJMQC8Ap2LjQMQX44hvj07y8nThqtzerBwnUA1uDPrYW87
QOrG3MUZQv/pJJVc3CRzYj0dHT7Vpp9mHLcNHRqQFjO1iP56PRlyZQpO5P4dUEU3
6onNGgdNVNC+fsa/Gzw2dEoxQC2x+WnZpGXYoBIGlmWRdhUZF5or4KOWMgigMvkK
hx7betdKjOh5UBv2JoR345oBlpF84zBg6ckNdgK9BAAvIVX5sZAb2Q9LQbd55dAK
LI5XMv56Z6Hkkw1C4UmNESh9myhfetpq8VFV7yYAizYyHOtXzGREDGoqB1tgOoKi
/AfQ94i6gYhcs9RMJTUE+mXWG9K/+OWTxrP2NA6RvIlaH4eFZT8jrZFUNdxlXeE6
qptHwSKffyPMOSAvysXgddqSAXZjOEZ5E42AKHLe1d4GpthYDwURwYHxXdaUmCTD
pkliZdvFU/wKfoDUAPbB4DplURXCsg/l8IbMnQzvkNrgGMqkX5lyq3BsBUtNv9ZF
OoqNRqfGD2O97yRrXWZqn9ADzF1BQN3r1mbc3/h/vgVsp+e0C0uRcy0Zv/uBqrdj
iAzMO2WcIvDSdkY68IdGJJMV7B39J0OyYE6lt+NtOFi8hBW1yT2lPsFVofwT9CYy
xgB0mHBzeww+IV/uxMTKrVUMVTWbDiGkqovqSNNeGJRn+Wb+Wxfx2NgQsAq3PZqW
RGrqJhVAqyypyWI6X6UJV4QMOWHkD+fFgUXww915gFX0nANKMQn1Lcql2OQorUb/
BVFJYzda9tQYQwmvkl79C77mBjWpzvcP0lfLl8getL4bl4e5IJ3SCmbc2ox2FDwY
jKBJZxjpRB2GZnhkU1nSLeJmVWVbs9PXqU48gABr2BQZCrZg5FqGEdllYfuY5aOh
uLu9QqO81yyBuFoTCeyb1xw8/uYMCz02o00xojrMfDPHk4aQ9OhM58vczL+Ubz5s
Fs+0p6n0r1r5SzYv+DeWqZjr4jhWE/3p1D+2a3juS7m/rsvHMGHbGJYPDLgi5BBM
Py3lDlhsb3V9+fHERWc5lUhTy71Bw5+LtmGWyVQQMmFdp5AiJJApsHeYS0Uz3G4V
sAvE/H/uscuL9GB3aoaRzX3qXLJslslGmHgt8QU/UYA8yuZUt5flmk37Oq7WnTKi
BzHIpDhJ5NmKPCokmQsjop6r97QEutA2gv04zuaKRlf+hXGJhlNW+q68HzAzAigD
sAu3c4kAWTAT32i8cDNPdVUzKgW1osDh3l9nkYCS6gJjXVyjgeH/w/UWHwefQAjl
fRP7tW1RRm82sP6OeVSW6QhD6trFsczD4mq3pwmBv/Phcg9Q0NsCUfSblLEH539N
/9o3gLBvd30w5RIuhNCYoKF/fu4di2F5Ynxr3HO2LeHgBqhqHMU8qtxWoO1JTvsM
Yu8Qf53snYpkkKcfp1J00hTA7Gsx2SRUDFC4H6DzG3Ji1BYT8R7XzTFHp84Ilnmc
hT+tdKDsbMusg3a7oa9xiQDevfa4RZXzlFON6Kkjb8ncm5Q6AFxlIMxK20z+uSRx
tDzvbM2RaTQOHtOPBQLiLZDgZWnYYNpONB4eAuu3wtOwoT/pxBa9LxiwzlJO1H1l
ZHdKfwCS+0O201dz/aC/Cj4ZOn+XXacLfKkzG06J/tPIyvj5g+HUo1iCA06TLDYu
Nb1eCcjnr4nIEdgCgytoWIjONlXaQWWrpGaoQsqoevkpjPXMkfuVW3yZzxZMS/kd
lNwtV0yrQ5Fh8xvCIemP5yPIbGlWcRcGEoj2c/R/jkvDwyyf6f6/brjk5haFKhft
+j8cvNxBbPjiIIKQq0S1GuDfTevbT2py/z8Aw7omb4y4WLAxAQ/qAu2hM35yrUoX
euG/unpuWqVlVBHObHeJNxW/xz/vTh6o8mvauhoVDMWRwCmcZbTf5+r8EZPAvjH2
TJl/GzeVKAqrj5Es/gCZS+FGOQXl1dCyWk9EXxgqpetdfwFGenbpz3+spzJ/QBoc
5rIIyJRFnXrGwiDJi+LeC9SYKBxZ4sNI33W9GVDK2iKM1I/jO0Ne+Wvdmzr9WyEU
bCl+kNW+USv+RMFDAO+Fif67ADp/Zmh5oRveQ3hEIVQhp7NP9zrXqTg2JiDN3Brz
i8Bq98SS0GtejECMljcFwiP6JR6MLuv0Fw48y3YBsASJ/vfEZOBxoWohJeLbNwbK
ltulylFg/3MraY0DT0dlgmMt0/39Sj2cVLG2n5t50BpnqGjZ4jlRSyTF3c/xgaTr
KSzeAYR/pV8OcwwfSYFmlLyqTpjqPz4+GUbrBS0VB3INxDyCw8TLAuWWbjB4H6Hh
wUZkuItQYtHC/4eCJqKm2JjxPEbDgc7Px3FbiG7VUIV4T8HOEzylOnoSyO0qMo+8
C8rPMB1r3G9lIdX8gkzB/+c4rC/Pobht0dw/iYgEMD8oI6rDQaIuvTjTxDMSICam
+6bcVer///71AWCSPJfvDLBNpjw4Y6AkstwQl4701tHwKmlKS0rDZ9qTVO3WZx0p
er197KjCr3I60e1Oqr+K6+ECeqYCsIwa48L6g/UKstUKm5SJA9xbfi60AG8QBKfY
nuf8yk0OqUOg4tiKz0T9yfdsyr7pZ7S0DvVYb6C0lfmItL1yvPkl0u9ZLM8F9t/o
FUsIEKDC/44dR0lpJJH3x4/rtueXcPtPzY+8GSe3/2PRCguf1WiaUjJxCuWCnz1q
fOQn7Vo0+XMvCdNDNwc9vFTEurwHBfVlIW5ccw2hc1frngz8nT1F3DEQcs67oewE
+/nl0tRCQr4IvhULeJmHO4ZzTpCR4fNIXzisN/Dg7waZv1SCVKTYEr+AnOpomkOh
rQGo6ydERwR4qjiotklZMhRurJ6znqahEEXkuFYyKNN9P6VueUMOpwl56oi92BEN
n4Y9ERb8uWHimf3vtSGYqQw8XRw+6Sd64LUmhpQDuiB8TNo2P0rKbVVBCbOHWDJT
ic+oRMwIkgBjghl9Z4b+lJbi8tIljrVhpg4vAxTqZi6pzmzVO41eIg+tFKKwZd9w
8bTfRcne3jJRwJbiZrOdUr6jNTwPVqn1CpuAvb++rCOvxPdGpQC4qefIuXKipYIy
zqj/9gpOYsc1U2x3f8taKzJKJYjXGUnVZkYHzF3A0wETCooxD/Nvf2a6eb/NwBIt
4WvjhDBYLz80gtdG8z+akYNCvZWqqeGe4xnzLSTW+b4l+EyacuIQLOA71L4ESnuB
W/wMitfbwL22scVCu72369CCi+bHAvW6z6awGVPripkLEVRgAvUa588XgDf6zA7O
To/FhK1AVTR9SKdXSeOhPjZICR8Z9LXYV/DQ25xqjWko7UVTlbkUKWm/PbA4Dp/O
hzMBcw84n5/rSozDm7bPLgUCbI9dh0eUgky2MfkMVbuXRQoLS6kVjodK27OQD1cA
z5mU+YBltbXN+sITSWzdxDqIQDEznFUga5/RuIXkp7A3R99Bnq7XOHDYpZMVbuhW
D3VU0GSVtpmGHgbtfa+TGIdNtBZSrQlLNJY3ArhTvsbMt22WBN6caogZgE2CgZNA
4t9jN9ggO9wqZAU+Awx1Mq+6rqxUbkxJZ4F/Bh8S8pMjmy5auhW68Eouz7ZHjdMn
MmF0SZcSfpU12RW3OVCno7vBUy4iKwmMfzanxiPpd4yOq8s6VQI/1IAzQPbDzAtP
RxaMV1MWn9YrV8ihr+g/iq4ADgHkEP0PW4B6OX1NXG/wW5hASRHk6o9hohgmmAL2
aT0qEeThIRXot8k1aecxC+P4xd18l5VPFwm85pGXRE4HNCtlzQppEDBrRzr1Uj3+
oRjYI711n5/yKalo3mT+EyEIUm89m7kmURPSc6txUz52wIbDcM75bnwiWEqHR8+R
sqsbaHpTNvMssnSwpqY0d8WGHhnQ97t2hhIogl60ohMcJvGV2Mr1A7xO+Ry8RM7I
s5KmHAuK2iliRxccLPhmGpT4ARuKjOsuseiArvGj1ieUrORKR8IaOK0sCzH6OzpX
m418qI7M63fY+OyZPqNyWw/xMsRFsZAxNZFA6ZpgtXww36gMx8NjRteaXG1tHqtd
hM18ZqxWr+a1rxL90qKswok+Ua1wGTLHieTwQnPzcUmSys2WmsRmia0fhkWWicRc
VGVi6h2kAzfEdQXYK91gueY3K3M/8boE9iks5RLFUBKcr5Sn13wEFjFTSYF/cmx7
P2tEh3Ot8PwgbBylAM7d48KNEQIzinWewVht/Dl5+HW1YfrweuEh/co+oWTlk6kQ
7WF7JYdZX3e1KRVfJpdcfFo3FioPdiUxrUlgg/f0GH3jsNQyhP+9ZlMYpz75GVTw
PXXXATbGUZdW0wn1j4o2e4xkhxpK4OKmq9qJfnfLvsckTKb1T0REARtUc7fjxPO8
NLA+pwIA0lbA5QgCTzcgsNLFbDTINkxnEaUozflsrQYyEygUeL0IQ5rQM7knrFfs
70oIAeadZ+i4YfIzhPd+tl7iBU+CNJmMPWwZ/EBXeTMYCYAxnHtBBWrACQ1qv3ZU
Ta/MyAqonnyl8m1Sxq21OpR9DimTD01N7HqKyJgvKZPNmuDZm86v6wy1QiIdm8kS
T4SXV1bSGMG78n8iJN2HXMXZurMcDgjP9ZDU6YR6Mg+ZTdEgSDqcbf7Av3CtOfW2
KJlKDMq+QjGQTM2fAX1eCyywUudlkAGsw9JSCJh0qDx8oxQILvZUwMH5/ArNEIzn
6zZIBFIKxKHQxd3x4MeYsd88FTxhOIuCZ4stANq9ZrXgZVx8aObeb8nsNoX4LRMn
PZb+twnQKwISHiucNWzVGwty5MWKpE/kCAMaY3pD+eXCPaf+7zVUf10QC/CvjdBu
1Ce8DruGdbj0HQqWDsQ5HUqGf5sAim329U5gIzJGUUyxYsZo8M1uoyss/fLc92xG
nNulpsTKtWy+I6eKb4jLVYGUWNfu1pKUoWAEGrry/xcS4759zL2Jzim5h1uuzKKe
tDPELjldwF+2T9BM0xDkJzJseJRO5XE53GIkZSzg1Gaegn++VqwUXGNw6qWzj8PW
/uUO07/HdOELf6ZzxcQiKU7eJlzWO4rGeM7esmGxoeI/AHbQBCrwcPjuhAcxkcBq
fkhAfG98V+A/hiMNfVc/QPzUGCn+zcwkMpFvFL0E8ejgWlE8XFzjt+k4/cwKCnwf
rZ7LC+zyAgjn1bqPmyf/Lo3VoncLSKs3ZB5YX8LVMrQSY+NATwHCoi7gBAimqL7g
bzdsK6Y/2PkgXu3PvAcfQCenLkxySAm9ZMKlSz9UChFz0h/CJm9NZfdvs23NExc1
B513XxlO51HyDfFEX8gYS/5B3JSoXwT4+LoI5EVV8BAU/Sts4DC36LrktZg/hHUW
QsNkcG2MeARWJY7bnXxMls7UinhBJmXhaZNiwBQtHf5pqwdCGXPOhw9R+cBEzPb0
WgujiPkqpN9IHvQKasZsojLxuluoWOTNGZuDyScFpBR+kApOXNrRS9jvnRKG86oU
7gCCo9povcVw3k5UZyqOSN/fT4Dc0bQX9RMGivKLLZBwAD5DshDOxq+As1mmpSZR
vNw89+QTv4TQummfVq+Hp0nyNQhXlCleV445f1GbuGyBmoZl2SAXq2yi/Ju51lSR
pLKsVzQEFt4J5GA0Q+7fTG+Hp/5CgAYkoanmpOykvG5HByxYyCaoTCZVLVBus847
IHnCeiKm+CjtxOJF3dJOlo0baX2rV+qhz+pd80zvWma4BXSSb9DvGkomgeNwOnj1
oNRTsJdxcpj78+ivZjmWDdq8aNWeP3mjYge+ycJGV1PSZ2/XSFincOxXl65UTZYr
BUF7VUKnZ+yNz9MKpJZyrEUpMoO9wIBiqd852asKFygdzeRRPoA/GPg5tbPH7dgw
bQUcLvNa/OJJodhHhVg/Nti1yMwUn//siNj2ywu08HmAkNfbUruQxH7m2QD1v9HR
29NZL08z80Q+lECj+Zrx8ga7v5eStPBtWD0ieOcWFbB8oPWEsrPoHZuUpgYULA/b
jep8RU5ffa1vMaqiP/p3tfydkE6AHqqt3DiEGzlzsHknh8sY7FO0YEAxPBo3g07o
3mXjuiYUQ1NXy9Qf8Gy/ClQxGjncmqo6u/lwlG7MVRONYmgyciGR1Dq+HJ93x/Lp
2brcb7I4tLZHAevH19KZQ+Q5Yn8LdsvhwLYKUPvx6awhwqNCbXylAjFXOMs0Asal
V0+ACl5ku0QmglgErYjiSA59xpASSCGbxlwE68D4/Vkxdr4qbX3pPsGHvmizrKPc
GkhAxdToa5P/qx9cH1cbT6PbLCdzA1I7ze7j/fr523WcwYWglEuVIEJmsTvBw9fK
vgjdk6bVZfNVVruCAzhkkPBPuveJxCa2bPmKAwpBOe/NeWooBMktvm6V7cvJzGZG
xzscfU3Ai5lBG1mLUhWaMFOuOIG6jT+FA1sOL5qB85Tkjkghvf62Wkt1l+ySf34T
r01LxqHkCtfuh8PD/TzHlVYpq2eKfR/e73qPeXf2Bg1vbgpKBupNY+nLGPOauCem
fmaDeiLSI0RfErf4e258pG/g/dkL22d+gXE3Hx2foHI5IEQJeg5vprA7+HOxFI9z
XHF2bkDB7Tmr9/XkEZPg6YsWmy5Vc65fq2SDe5TgfDTyc80kzAoi/UML4H1kgl7B
POzxu9OZN/DQtwnMI6rSa8mAjlEi6y2G/u+njXnDXlru33mg5FumWBwxb8XsfNmJ
7QZoi2je3WgyeyzcyPU31Ji9LoInfjXBnFxKl3jtu7zYSRRROYyGl/r2FvAnWN/m
aooLI5dAaZtZPsx12Raii69hxWdVoBQgkPdaopD0F1xjuORlSFhlH0V3cXdTTiSm
UqZYpTKOAY9M/jXiqxgTrAmLJ3ZPWTSsR7N8kMMM2MF+6wMbVYqRzc0zxTyuaSRk
bLDP20emlzZ22PT71EmQpdKaV5Dii9uOliaIdi1Am15IXCzrmac9ZjJBnLgQwxxx
gHtFta3rdU2NkJ4FDW9t+PhtIIMejEC1FHQbwvFBXSy/cPfAxbmmqzdzOfmKrdsT
Gol5dpkqXtNUTUwdt4ncwlYiF7u7kjwQQpnjhVc8/0b7ERayi9FPegSsbU9uqkk0
AvhFFh29hJAqWzYUdCvmMgPyQGz8V+a+rGY1DL6q4Wi+dqgUze4xeIKcuJlVneIr
esoonIKWyIWl5pjsN1DhVRMoROjDZLhVSMusPT5wx3Wlh5Dg53mWG2CGyCk8MLiy
uiTx13D+aNdrS7y8BOLbNODkDmBULBMY30WNkq7FS7VzeenXx3OoSxf/RkcWaooX
Sas6S4Bl9S6/YQI9hDoVdjSjqaSvJWW8XbYOo1B+zUANw1yIl3rp5NebZND+bC/y
1abu3TM/seaoaIfaTd+r9yeA3nGyM9SQckg7leT5ym2KyfIkjd0AOKolRWcAxVfY
9d10CLLsTJs96cHW4kABwDHxLmlQDXm7X34z262klKXPxg0msCJbKQhgPoAkOAjm
2G5YJuNraYWm++vzSwcb+ITtNZQ2ts5pn8gpyp92Og28wNE/GeHzJ55qVaBn+DQo
U0dtAlu1tPhpQl4XpzRFt1dj9ubEe/Vzojedisy9C9ZUEg0fsoaVThzLwLJLtUbz
Driif1dofp+wQDK216VjfgWvCH7xSzv4GjNdIPJAdBIwl4fU3KKEtMtg+YnJ6krK
bPKH17gvcqaIfsbCwjQ2kyiiz/qePzOlB8z9c1dV873K/L+QNoedispvc22xd6Qa
rm55bjtMZeOzs5TthWB2/GnxRxUfHPpZp8rzgOeLEPhURVlCknQfdmR6CQoD+LUh
7kS/qsbWHY1yu6BCF6VUtbUGx3NLKKOzHJvocT0xv7Jl4VL/4YIylD3x8S9Mvxr/
0raVygxm25oF3EWk2vAQPdJvB3SKY4C631RTznNvlnPyUOICRqiP8mB43EWmED9o
BUlny6jcZE/ZP4U3b/q+2H0hVZ4KOjffgeijsRrF3c6Foq7OGsEhoLqzya1/y6KY
ljFfI6K5qg+/lt1o37Ax8Zs9v7nMqc47FaFtTP+t1B3K4YuTEmINx72vtSjhny+5
nTFGW7iqdBpYJED7Ow655Nr23Ru3LtipnEfY2C2h1KBT60QCn4sifSRFHdN8w78y
n9/ZI5n31e/HyU/1xgQO95llDt5MGKjeVlcGsO4RuwaPUj2bQomneMmMbevlGA+Z
wmrkf0YGYknCPB2sOlqoGYAM6i81tR7y6+IGiBPRr5YPkOZswCaXush2ednRblnx
gDHZ/6ViFjpnFeiJAdhN64uVpkPOxjSYYoC8ISETnR5KJaWGWY8DJBQ+ZO83spFm
fkdDb2MUXlc69E7tXacCV7OZohido9rE9BrHg6P3l2yl87vITf14w0y3kbMY2rjo
aoy46RXSoABvPBnfeFmCWT/X6giagRS0c1uJv9joFv9U9oM6dE2uLBjonDkJxNGu
Cu5JhpsIzdTKJSDJNeHWddn1hSX9T/5KUoaCvuYghDIrctP779UxMpC4uPWnuKlp
Hb/PN8eEU+r391Nb7i6YGFZHO383eiA8uaUAd0daxAN7Oiyd/gb/LsubVJTQiEc0
OaGv8edWQnOv2HvxysSKpwGFWmXfQXCQDRtx0eoTe/tleh1UBMs/nVC9cvphe5nA
I3+5Qcdt/mItvzmwiLZh2at9OQ6ZJFRaj+1hl5mymhr/AmHDkTQ608lZJpYCb5IB
A6Air/nX8uqjn12qo+OqH4EYHYrrlVvsmv1GlA30u73iz9GtLfYPalrfFwp/7tPa
dCIRkqBo1XTaFoPtwGRbk4u68SAH2zXb4O39EPfjCd6EqQmqH2Th6X/kudb5Q2jN
D9ktYPaab9DxNu2tAnVSDveQHzj6/JO+QG5PHq/9powlpCAOQXm8cq3M/IDAy1W3
cJAuC/tnyr7aDROYtxw7Vzrt7v2Am8opQK9VYT9sOo92kEoR0CvI62UrPaZt7MWK
3MaJdQrqV8ltz0qNLf9ua30XHdjLKDIjsTMLOdrGX4e9PsuJStmx7jHjbrD/fJS6
hSLgEQVX2HHeUjZZ9YOzlOlMF6qkyefnoY5hfp5xeG/gtdmwiXcZlSOHEMuTrmWU
CbOittDYqMLDxwisM1lC7nLQRcAXG37LQgAp5M2x8TrjuF58wSpowb8AVbpf3m0N
TMNRVWRzNfsadSt/65NqGvENZqFMUmJU0WMhADiYCrvaeqly1+ste0xxjXn8CNlL
g1OvHdQDalVxOqoEy2gLvqUll2QzsgCDOGYn2IR06xIx/qOtCfXa3onrxxv25LiD
UMKadAOffdKr9KDeUuOAD1PvlSGAJA8IL9vNLvuHeN0Kuilc2k2kNSq9NMlHMsiI
STrYGc3fROry5zWKI760C+MvfyeLxrXJ5i7CBM9pO59f4mKHPVcpGPs+z+jZOKZU
BOhn79o5UidkqqhFpfR65XsdQRA8jnWyK6GFJZwSPFwol1YVT0X+DmZ2EQchJVBQ
4M0BydfT95e5Mw1x9pqerQFGeVF1JtkW2Rhy2jqB47Mqn3oRP5eTBwV9PbBxC+Cx
77NhSP+T0Rr4DmMUQspH3xehfN+BKvNlyyobEqxJpFDTEwPutVH7/B8E52G1Hh3Y
i58ExJ2o6VoR9NbwGnq4ipqLuGVdlHf4oTkq4WzXgfi0wbHDLmQo7w8ykjf3jZRn
TZhhS8UjEsruFdIPl2fwM22C0LDq3Q7o5vg4Zu8df2rmub3ccIXU2WGXr5ajx2g2
noNUdqkXVca98KmGp9dTOOLt3659k2CsMnSa6xk4T14S3p3XKQnOvqcvjvqKfp/u
Iyh1f5Cy1XMHXo+xl9grWGGT2oPOxmVdoRrpMopLI/2pV1V83lT9kZ7EAW/GCJW9
dClcmP99afgppEQXHWTEyDjhIwIerFSRO2QUw+AlU/oQq68AxT7AwPYpsKk2lFeh
aut0K8uw/EB51wCJry0l9AE2Vt31/Eu8w0DpHsXr8EVIr9My6DMs6I/3wV8G2La6
DSvn4p2GDM372G+SkvC+srUISeIFY+o97FEWFR23S+z9fgWPTVX7ER2rWJCy16Zy
xtCYZu0q4ZIK+CpZtjtCFus3zYKw/ZFUJ6ktiHbw1NS84zidr0Uq64QouhjH3zU4
ZNSmpLsjtB0IDhkEGuj4fei8arlxF7UglAn+ciJ6De4upoSKJx6QrN3i5jsa0Btu
ITaXq8Z3qsKtfNzmjvxoMyd6RkJ/f7VWxmmXmqpIzEYzVfLy2HT/hr2SlMMqm4nF
XqueJqlkC3I7BUN2DkYOL6X2XyYOY453X8R70HrLzRRNW30w0K9mJ3JNb+BpEPe9
xSnxgk3QRLZjnQ0MNTUCo+j/+9zRRHKiQmbsS01atzR3A2xUTdyc/8sJ91vTzf4b
SiWm49AuUa6vE8YCjn1GdetZasNIYjjTGBqUNbNZN+8GWmxxArhvdJHDXZ8z+0x9
swpEd/fKV6zMt0qqKeAbI0nOWyJrRWnFBdEcAoSs6JEOeeoSjPM0rp2VfCTXQ96J
S9qPBLwkmPv6peQvRiLL113ixRhao/gb1vjCVeeswTs+wdAzjim9oizaIRJ9iQ8o
B/g3kyrGytu9Vr+2WdJakEzUmuorAkqjwx+Zw18dl7RN6yLshP90+LJG3fTd/hsT
2LTxWHmvqt9ZWUzeq+VIdQ4C1x5gGk1t3IGl5+9kTlVzDzMNk3khBMPf62ZxAtXq
/PFbCmvoLGTbDcXwjBznslDYbGQfv++hdAJQPdeAoZCnE3yV7Am95p5kiI3ub+r8
4stTFWj5KQ6dqC5G6HZR6b4/JBGYll9+H83XNiS6/up4N9Qex4MB1YwmfZdaNkac
CY3q4PI8LCIbNtDjQH4EQStSi5IyBGc5AvQXvHwvSSFYKD40gnW+PyTbe5gcF8qH
K4yua7Y84DnYhlwHTBuhNBeNB61qJkKgdHOhqnJspPMvmpPHzF2jAyBh7xrvJyiS
E2mYzIWrRVu4Ce4jQgJZnVdhyg+QC/EUqXrc2lY4xXCYo1Erfcq8p4JMrTUQY6JQ
3ZH3r07F4aC8kUhNUyFvPlzWrllwVCXTybDBwPiQkjqb1gdVDeon/QdfTT4e92LY
+feevgBZGIQobW+yXU53AOpF3ktHEaMHiTz24e/QHDzOy0lAozXjtg3PNdRSuwdm
DMjuXJgYa4oDvzyrJEM09H49OKakAv2BQuE/cToIkXPHhEvvcsJhIxEeeIbjnUO0
/tUQfE0i1XDjiRFfCkemSuhnn3005wUyD2lzrA/9A3PIK44TM4w8zIEfiUe0bS4W
xLYAK2wlsiqKQnltg6X57X0RwS6BNJOzn2kzCZWs+yvMJO+9aDYw1NGdQPsXfXRB
TpGcOJgrfxhQ5V1Z2x0Xtlwa1RBYOmGTFEZA3GW7H6mWtiuecIUPOqU9ccM+42mS
qOc6ObG3+JsDpGvr6h7lpRZdlYVfsjYmcyidHP4km1I8et2FU+9+12TLHFcyB+1n
ez9CjaVFoEI3Uzmip9WQCb4cSMAKFtcu/BSPNMPNkQCUxeVe5z1IBbl64mEMOImb
yW6zhI9s6UEW7gxwcPviK6E7tFkZtob8w3xdEERem76Wmoejj6YIxIlpqL3Uq3lJ
3xxUu4GAQCrUjqRLiUv2Myvy2H9lOINM/jRHStN7RSNGAzJERAygC0zK9A3Se1Wb
dLEv6hwy2YSKKVcDyUEHf4usFbj+IgW0DxIbj0UFWwJkWZE8bajWP5XsiF9FLQ8i
g/XCTuaLiNjXi+gpLETAnSoeNfOpYThUt1j2u0oFnYpmU+TAwMv2LEH5rGunHnVK
a/UQCnR4uW/Ia3uu/32n7n0b6ZXU5WQych7SzlNbFljYm3YDhppPE1N1b0HtnG2Y
zMiq6vy66zB1yLDtX5im24jSwkJQZx1vMacdm+CZe33Bz40jY7pCBU4kCUrcP6Hx
7/h5G+DvqnFZ0ZlYctwvu5PcA0umjzF76F5QyCTcr7IfMmCpDE+ISOfr4rTVnGb+
Mfi/dtmYBezST4yPQutmy4crEkRpJ6ZzuD0Xl2PXAZVcYAR+fiOiWm/3QgQYCdob
LwSBEh+qHUxCEEC8mvekyGtWYHhznL1SQLwUPwJkmz5+JSSCDpOzlYW/w/Jl7CGT
5PlJ4dFsZHOy0RP3LJI+jfVdaTOcvDzeA8ptA4vlfEcYM27/Ct4t36Ww8Ft7N29l
1T/aMemBslAXp0GjzzUF/+QtoOGT4fpKoEljN4lUqEb0yGN3CDqDoNUJ6jsWKl3f
/CcvcFcps3abNKV9xx/NEzJwBovFW2zFz3QVplLzbsG8fw8KrblrrBVifASt3mZU
v51/HiKeJnH7/X66fB4rpumg93ppLiWWBop3u216uX5bXdI2tS55kUoVkKYarIMa
P2zFWH4aPoF8cZI0gJgVPwBhy6q72Vvqnfa9vxh7a6BOkEl/P48/bRtqYJsYo99U
YjW/y/6d7Ks9IX94fYjlAL8V/7VazRj+5n4qobRlIeIqOMcKAT+oPhfh4YMTf53x
9h3D38ZrXo3AA2jJONxqe0OftNJBjZPQud6pIQqSFFXZ5zqnk8Su9wtLePRrdlFX
J3/XFTN08nrgxub7ymb/j+s3/J2CUTUTraXNUTzBNX3T+ytfBnTI4wJCW3f1JUel
NpUasVNV+i3aK/oOXsuJOvpNDVCojYjQX3n0TtxYTo3co1bpvmzOLOUsTD+H5mek
ITxkhg+ZrznroTtPb0N5I69Gevb1N/rPE7vewMQivpqwJ6P/cH7Xa8ShG+iW/NRn
GylFQdbCTCnWtGlx76GcQIXkVADHdGqWFWASkTf2DRGpKqdPeYuDKph0wqeuhnDG
uypRddynM6iGMmB7kjdeoj8i3FkGogvLMfoChAx+g/anWApmEKHFMOejYohDouNT
D0UJxhhTmR7oxvQwXjsbxpZbT8l7kWIqKlUDU8NBDOVzBPyr3RbUnJa2eBhBm1eB
cALkbdM1i1HWE3r2tVUarvXxRVI9mNR+DnWzA4dCgnROYsaizvJXeky+SWis3IG8
py5HMOqW8Cs95S9+So1Wj/4nmYHYsb5Ms2lh9PvXZPl8/KuCoPwziXTaFrWMZWtk
HaORQG8ZtuVZsQnrOaptwS8+7XPm+p8YT/jAf/eke+RimdmiUwiQ4l1yhoyENXCt
xUb80TRuAuUB9ZavoYRqeQd71zDz2drj98SXpVf9rzt2RrY4a7E1P5ZUX21Hlskf
QNu6WTMMHk60QJPAojnIiQRKQmmN0muPDzOyWvDYGR7L831FM7gCxTBIb6Iw9zM9
GcJ7wYDL978T1+6emLC81IcKnfqBAOK2AwquukhDxnP+wi2QE5WTfnq33AQnhZNd
sr7YyNRCXcQCxuzK/RTbC0ngOftA8oIbPV7AFbEEsoY1897aDFXiGjZvcM6yoO/m
wJ11zR9B0BUfq3hCwS8/XbDAfjmTzewSFbrmTDbwofifP9zoRjKjtMVWV/UFP+WH
G4TqKGaumm04zh7ARPq7y7j2b1IOUeB2RwxDSbZnQS9EtSC7B1mBdGjJFfDdTLQI
5AhUhHGN++dfIDPHeZRJYRi/aJ2BBd5MPZ8C3hsPQk0+7CX9DpkRWHqAsXzPZ6T8
gKpGbpJ+yQ47UaLO5C4sMOyf0foE+ZeWs6+jE2dJMLUfSs76cH3iBqFnXW5nDDUy
bXjxe+RjTTe4oLJhqerKEdP8lRDxAYQGO5HQ2/igsAnbkNqqw2WxtJDM+JiOCIVk
qJRIqXn0SDuFjM7PzQvgxwZ+x//aRKpSb5XraqP+NLzjcvRR6paH/DLXaW9ML7aK
rdniq9fiWYU+sMGwoccil5uwA3BC24u6aPSNsD9yXXF6ITuTElbwxEj57Mmndf9P
a87++h/e+4xYf8+/lztyFIxZt/XZHXx9PgsqcpGiN8/0lE27BeqF1OMUFaiEYsjL
TwFRVVRkKtiNW2RB+5d7RJ0jkGc7AZaopztGnO6jJn6AAVPs+dZfcdJWmU07v5tL
pNMD+G6sNB7vZqesxu6Cgum3ZTpCzgfjnAy79V0q5OSD49rFeoBz2hxHVwksrSEL
Dl1aLdSuVMcrM/vCwF98TjZO8e58YZ5BUhSAnS/+7ttDFec/P5ZSW53VYX4umXfp
HCnTpn9003K1TFPXMTwJPs3KZ1fOPVhtduJdgp1eC8LyTGOoEiwRifNodz6e+Avm
Gb1f7YnlMLqjEDoi5PmSosCVCwzjBSL7wE6Xdw6fdQGrqdW6XjWuLTmAoULzCMvz
CcHENWMsE3TP8Po7vZXe719Hr7J6gmvuEWOswnOGpfCF3eva7eTytB11of3MKwtS
QF5jwpwWhVUazIMN5wItngltosyT/ak9yavYAhylsAdMIllJfoLo77E99f5IB7I3
nHMGFXEbUxYflFQyJxMdIn5oj8gavrrm29buWp7oMVOQ5D6Q5h7MJgH5+erZf4qO
D0VFBCesOHNQl5QdmoVizsm0E3tO1vC0xB+E+jILwMGypQ0jYM8h6sy2vInvDjlp
fP0KalR/bRSZv7TksBZlAK4YixAK5ONELcGykbjBll6UKP5vaon06xYs5OPYnkr/
4fKsCQ30k1SV0bQJf1zKtYpP8MTawhH117fwkpoj8YU7djUnvhhL+YsoXdg82303
7CrAojw7HmlBAAfwA8XZ9AAz9rpffurcyydF9pN0VQy6q0G2J3PXRkzSSdLkLp78
pWFvplOHXqkH9Uj/M+CVkuPwkIhzV+7yOxvoedc7VvlvA77Frq3RkmulksXBVpaj
dFsH9ObOUaXyQaFOye7W7onxA35kRgceQ+smBN6Vr4PXfvmZLAqKNSSpoDTbKdHo
SLQQIKftBha7lJiwm60jYGZso8Og3ruitIpoo6vdRrvzKjOmsuBQx4wHh9xKQlJL
BJiWcLIlrQA5aOnZMHwrY9G+4dj/ncE+Q65yweA6aoox9u6SPcpqcx0vcMnuMm/m
e/5NVw7+KzpdM+F+ney4p3lQXg8BXEJnHR9MrdCiHpDmzsNWBBbTcuul3IlenBCm
c6ZdRAjyXbuciycfpayuzbA13OSHDzLYNw3CZSgPo0WPKX5GsF6GGRYL6JSg+Kds
VEG6KzkT91Nmx4Fhrf+3qWT/Qh4Wba8S8gCs6H253jBoTDwDejE9QnhbjTrBBTx6
z1rSQMF8+OfmGnOQOb1UAGxLe9VWbCy9tTp0x/PFM2tncE88J63ygYgJlDmFHr1g
phJti6TAmQ/0k41JUJ1S+xPrfc6KKm13YnUT7rsPR1LjJNVhRLykPHGO8mHqrOGS
/Hw6OEOnPOOp3K2der9lzcrg7xNm5VVq3soW+ZyJGA+Vmu1NTPGV/eFFJdbbEJ89
KlmwoBq4ZBQYzKpWCuyVo5SAtvp6o7nlqKk3Of5dORO/xfmuJFbdb/rmAr+p9sQs
BbqxI03qJiboEuBgNEqRoF8RF5D2NhbY1MZY7ZoHvDPMelsnSSvx0PJJ6iR1gPCC
8QrdCtQhqDAHVOkdi5ICkeNnIqXN5D/OQC5Gk41N5U7qUvsSgpR+/W8wuxrPkWLM
s7Dskq0KXHTDOMJxq9UoirxZDx55dWX4JxFbagYKcn41ubtYCX5KK7if/JKUg+oM
E1xwJjTvk5FCxrdiL63SsjCe+0Ge4vfmE97VkEWe5XcoS4Z7oxwtJjVdhTJ9xnE0
LTZpK7jLcVzEr6HVJzR9baGBMk3SUsPQqsPheiKBSEmNqDjlZqJujqZW0pQHzww/
vqJ3rMdwbs2xyDExwMhQCy0tD5QWVSTy2Ot3Q+j6BPFjELtLw3GX4pUvxkbEHDeW
jX9nckrx4C+S8OHdEeNXKeuhMYgRsrBiuZS94I5g6jY7xdD3AO9pot+QZvPCrSf8
BOP1TVKMFq7EF7SKNE1JPcBsjmQ0iAXU057rTvYsa3W2HE2e6KvfoIq5VObq2Ehe
7lEQNIuvDFyOQinYV1fwktOCrz3ZL9//dLS1HtU0YKqyXid7RnIqkZuWPStS3AXm
ZAHLcuRxu6L8Xa2A2fZMZrcjlElEy0DraG1YVPXPh8e/RvRNfo9JxL7vrs0mUMAO
KLnMDxXSJA1kK86+lKKn1kije7cN4UHRaBRzDZM2haMkhPSRRmjEbTSbZiaMxfNC
jtPSv0XyLsD2RQMkm+oWXNBKYnKdpZXZa07sPOa58ocbppJZ9H1fpgN9//EoQCDT
ZLV0u0hb88cw4Bcsp/8KK481dOMfEYdHwUR+AXDS06zXTbRw1QsPHtCnvrke0Z7C
t+8M0i61g9B0Q+ndDgOGUqISy2islw7ywxG224qnr+jo1uShn559NnhEwqKWrge6
eh3ClYbAASgpSYyxmCFlegn1QNCSJBPb21MmBE3l5eR9gHbbjOD4nIrvlLH+nRiG
6OrsFYOoHgNwQbNmAQ539XnPPjv4AgdsMe+y36hqHXQQv61BmXIpTAr/Ck74qr8w
JNm02+C7szg45RmWHnnAyj2WBjABLhLVwBCpR7ef2qDCtn+syDLl/BOtO3bFe9Q+
be0QRuJwbTF9ovejWydYCHtEKJeAw7wsqO1+IZ5ITw9dZJhakM8aSvCI2h7+YJX2
IHRvIioTzVkFyJMDR3e2/HpwZIzU8dTAAY15Ew96jumh+jg0lYCN6LF6O8qtMChE
YifU0nOHJVuhVbci49wkvHwFAA6kXJRa5wUm75zCV7Oj+D/nJ8oW1eFgTiX1XiGX
Ii18A9vBIxPRU16nfz/VYyO4+pY+L0ovQoL6fBgIIgdQUteSDbCQ9cSWxqHtGpfI
T5v0ozOZBsGI2mg2qCxDoP+8+xGgkEvYZEIL7elEiRN32PbExTMBl0pPhafK+HuJ
VTGG9aGlnynS/FA1RGLndz/6LTOK/2sKGG7icBeEv33T3s2tb/OoAa0U0aW5a8DI
GnO35O5A2uS0hpmhGAe8ViaNIsss01mHEXZcZLTuJrAEH3IjdwWdUX1go1HA7dNh
z0GCyBwLb4qbxlGgA9Rzt4SBGa0pC2EYRQ6RUjMYWdXh/jhupQcmAg/odRjzkVxZ
d+VF5GGkY8d6jvICg4zkbF2O+DlGmZlPqkwv2nr9IVWfg21hJhWq3mJ9cgxkhcLo
Vo4hfoAx4mf3MwTPP8bPsUSfRypAOYNDTMiNOQrsj/58psvmD1Kjy2SLFxjnUUwT
p/FOSCr4MhfsHNnWsv3NNDZERn0bxAtxPYRUhYY1zP35GjGXTMZq8ZTDSWJau/8H
+FuL5KVWvaxRQkjAJWWQuvMFTJ5//ezJXm68Kz57keKOimAHqokL5SCt0fa67BhD
VS7NN8m5yeo84ebOxEOwdISjdI3LspZriAP3N+FDr1th5agYgz7d2UEVzwLuikmT
ZQH34X+2/JQ7+w02g/szP8MFwZ6mvQxAzOEgduzZY7TT1CWtqtXvdiBDJVO5Vwzx
k44X0tUsL6sxnWIkw90ecOVeNxB974HslUfJizfqC/x/8VY9lMYOhqokIGrW86Rx
vYYrmnvX+iVaI5BbrgoOmjqwjkNU6JJ9X1Bae0T1H5egu0f/1XGRANO+EQMy1Mgn
MwZNaDs1CsmcFGQDjDF2gVt8AMonMjPfwrrBLHXcXEpU2zc5j78wEy4HHD3fWwtB
DnKo+nVpOCXtJYFubvTFhnoG6DBOLtxAgCqWbvGiRh9GzYS0n45WYrYgnjevBq27
OWVD03efNJGXp22hVHxeMaVV1lhb+K1luoOY1y5W0sb7DVHbao9tgXoNtt82GKFv
5pz0LYwX4UuBL9CAfbYMhHNQIKmBxNSRZbk5DA56MdaTh7gxstBmiy5ME33tasru
6ZMqwbh0ZivnaIGVnq+kGwWPeLwX4GCTdT/mO2oZHSJVXghj2ps5zFB4TOUAf4Pp
tCLglCGU1An4KiUT1zqlCQj/TTfM6ABwb5gFndQEVDFdEAmO+/WczzGnF1BdVpLf
8GwX0S2IGWP8Ipl7r4HOTjl79dRHvT/ro0xHTZV0wr9Dct5voQyT5BuIurdwwnsA
c7aTXsKOVsaNvRgyqB2Q/j4crLJ4RfvFJ/XWALgKw8GFajanZLWpavpxJlYs3S/h
UfN0DCTeujzgawKGa4ioKA+dcoxfQJ7tJDTN0citpBwmbK7kiGUmjlcos+47qwG4
SV96u2m69nDflJZ9mzW3ttV+dWBbG+zb7CyPO0ASq01hkVNnnrIQlVYNF0tYOOLp
OWV6mygCNaHb1qyk7JkrVt0eyEMN7svH3qppL0vVqjlx1s/IavsqdPb5bfVhItdL
LdXA64Rl+zIcPhT/O9tB9IMbAL7Rqq1fMdMxmNj+fhx+Iselou6zY3Viw5evawm1
uSm1oqCLeHDYWbJhfkwYCverhzOS5RkGW+vumNSSo6TYymaIdJ319Ue54GnzfOaK
dO3rww853ew6+D8p3NbJcTpQdkIfWSah0WdPyiD6IW4Y9Fr8Gapmnhy6m9ZUqqw4
B3zIa4zwfbFwYrKzpOeIgLZb+jWU/KSC9h8QWqw8Sn0saHsBlzBqNYjrFPBjsuvp
DrOl3ZRHAnK+bN6Hh9taOKUwBGtK7oO/5uEdmswVE12zoxEkURHqVGo8UygGLNE3
dgFaNahoJ0zQpYj+G/QDiMyQTBZ78g9FoNlZnMnUY/e3iwe+gbQMdbOJFAuTRRLn
YVWt+LOU/3lx6hzYhhIb2c2CAjxJtPepQjMsCtpd1X1tdaAIBDf/SaVBi2bwJJxv
8/RaCn/FdtvPwVX58IJuKxjNT6EDUXhTVvk/UBBNvai/w9qv9cmT8w4NeGAyy2VZ
0m8aC/1FST7Fe4bmG1KopDigQsByysbYxt5+TAsKCLlkye7yKU3YWdcYW9Zb4Yzl
CHy1n6bUu/5WZekECx4MHeLFCxlsYtMqPBhx6sK5XU38D+SB5uuTJ5DxUPjpSX/I
J7fmgTur8QdLWKA4ncmNNB3iWr2rIXK1xVmUaA8Qsm41oib+gIH/aA26VHEGVC+U
QAdznz3Jw0eKjlNzzIObBEBVvZ3/ZBkiMAM83GEcpjI1Nh9Hl1ZB4h48jdl3M1nR
9LjMImEwqrmkDZSfajNPw+lanI2jFuEpiMB6FMcW8uqXZzCeXXTQdO4JLUKFYxAa
qARAv5d6jVD5GlbeLa/Cb86DjHhDB496yhYK/HsfSoTZIlVhoI6q6j/ml8BvMH1o
sQqWPD+TotVbhjTPHsdXUFx+AGBqkBZYdYRw0ft2mhzEhnfa4TWmMuvHdS+pTThU
l9kUT185pxZMzaPbS8ZyyrqM21d/d8A6pRAxQyAoa3AKIQlO3E+gXDjwo4nVuuz4
X1yRWJdSjdv7Cg3N2cYvKP9R2IcLUPytXKKRQCT/8machgWQEupb6b9OGu/sRrzs
H6IYBV9Cm+jTIAPmXkuPARiHH06o1Xc8kGmYOfGNIWsnPDR5NGOFr4clLdtQ7Kyv
3mIDbGSr2GM3E69SutwQSSj/IiS4rCZKlLFupvczsWLe9EWDnQCNbEjETtPV872w
gEYXWmQfB6Zh9zRaghPrAYHiBmFrnQGUPEG4yWR1iyflVVaOEzUtJMqKvHEysOQ2
4HPtsnZRLj9RH8QByHqxDG3llPOsuRuDdBdE/etvCNYXUnYSsYLftS7FxuABeonl
i8n9LllWefyx904U2E3jgjIBoCd6nAFx1fxGo8at5DzN1wmGTqFUjxj5djuiXIlR
ktVZ9o3pb0ac6WhSIMbuEFNeYNAlqTyWoewssTfTOLzBLE7vABiO/7mRXySuvmpU
MsxvGyWUU/RdUov93uTwXYR6ynvNyQ9SJjTt/IP9664l0Mq4lbAurATKoyufQoaM
hQ7pjm/lOxJqfjgcUyc522cA24KUzHrmN+WlWcynTGPJFLD+h0xtmVaVh0zi6m+M
gI866doeGI4o7j4GLjwiNKHuHgEhZAalMEwyA0z9+40fjHoHrsgLqA3l09fjZFFa
6u7AUUYwN49utGro5ZPVc2gkgYxkKoUGBAtqpufV6TsQKC1NiAyuzDPZR/xfviNG
Ju3D8wmG/oX6xyfsx7pNf2uDCbCDXxyea1aO5XQgW4L8SXPwqw3fRPZA2YQ3NTnu
HDvTm+fWR4ZyQQag3J0jTh3zX7JAGlu3v8gTQv+ELRy4zzf5Dab8veRqa7IGlYIF
f7FfBA8sItvqhAOeIrOH+h2N68npWtgU/PUUhjv1PwYKtsGmM3w28VOst9cDOFUT
1ROqURvk5lWugWvwD3Caxe8ysPEk/sue1JsdqetDFaUUBmTJqvFVEm0ImPvTcuux
NklW81NSYbiwccvUvkxjukWD3gAjk6x2kwC2tkDrbVVyT52H1riGWM4BvGCqDtGH
LCvRHrVOMNWyQAbjvEFXA/lRwTXgTHOy2MMZIXhRm0pXiKz86v8bYzjpNKc7tgAA
S7hS59vHuq8R3ymJCUuGU/A6bZv1+TrZQbQeZTiZDJAKRxjViRYcpWO1OZkumODk
qr+1fC6KDipwIprWfFSyceAUBb9eqdRxpb9AYQckbEybGhOh588vK/7PgXDB5cEp
AWNvREGkmSQLKgD9M6ATXL9UA4u/2gEjLb6OOM41+xoUutd63siG/wq2EEqfVAmx
iNpVdwfn2gxygs40pw0AWU1PnGF8gqVoGufjuxtCGNHNMh/9MxqKdKfDyJiDNqfN
za6nd8aO/P56R1uDJVslQK72ddSDuzfCQtnX64gQjDMtW5+F4y+ya51YMQrdBFuA
1oVDbHOXrafqAt0qsiwFWhmy5ydoTxnLWC94cbi0hkswvN3EufmUo5CwI3OkMj10
Bz3+3y600TdXA37eAzJCv6nkB6tNFliwFBNFZMpnoPk1vdEDYXGFqgZCO2CmnnHk
yT7Dj3mtLjig6DLYejDwx1oAeV75tOb+tx+QoTwLiDZd6hpjjAe1Iuhu3rn5vey+
xqcfPdkX6byTXb/5TDtDlMqTbUxGNjAb09Mm+PCOsu+oYV0zuuEEjUKDu1qjGr1D
EB1E9NPEkvE5rFdb9sbCxkVlttjUzBn+kVLza8KlvAcFNrhGoXf+gLFWiYYQfWUZ
4IZj4GLsUU97xLgVIocaI/utuoMSqhQZgKqpuNfAXngWNftT4xYbF3OLiNFkA3h9
yyWkwatA1E56mf8YZPlVxim6jmitPKOQGM6AfOjOEjfFX6Uh1/t4ch58naFoi8Xy
kL4B6jufWkR7b7bGbhWVVNz49FGOvEKAFefO0jbsSnz8ly0S1kpkPNBvDBDqwBrh
HoYG7WOI8hqsm0E1SUtcCo/n+Op1X79a1gn91Ox+OYxCLAzrdloapbu47d5vFzFD
VWc0jJZdwjSMyIcJa1UqwgpTgV5B+jSI9iv2KjGFpQvXN7h3uVui0xIfQzSJueRJ
NZI+8dmqCr4DAJHO84Z7agO1TmTEV/loWjdkDKZth2IBINJ8EXBsnCzx/XXpPwXl
s/jnaLba3/60HnyqsQ01DwFY/mEeYMlp9I2DukSJ1wOhzpvZD6ISQbbdRF0QLOez
JKyJJaaCv1J39M6cnH0ZsRmGjOxvg52K+G0GtZqUF5JxerB3WiNlOieGvNBeg7ke
syYsTxMu1haSftWXzClYxG/1zJFB2V55E+GPKGYUo0FSp67lqQ2/dMQHLxg9qzbI
JufM43BBTU01Rnb4634uc2RXaUCmF92dEWbfXviJ+yJfmXKPSzH4+8WXqQwLrfsh
8qNWHT7d1tFez45SNqNzYK5F97hxSbx//U/zIoYPcr48ZDn8cdrJLe7uy2nUKwVs
AV/NknLIb9gNDLTqeZzqtqp1aLtu6bW4wkCE1YfVa2AbUuqFt0IJJpesXRCYwZrq
55JACAel1xqbdnIeXw3vD5jrtVGJ05xhsmuKRGuIfwsRj8cD1BLBAFZorGlH4bWA
oFUWqrBHLsetcvMGGY1T0K5mrH4VmIIA6Wv4joh9AIQU5dHrHYtWIXqmXncag6o/
I3OHev8eQVlEE1mw7r0wvOlmzFCPot0rRvjOLjd+rvDH5AuEHkyr39AXtQtWgK1G
GS4VJ3DpAQ75eJLCEOlZU6gpCV34aNTfl6aRqHvffthzpplUm6glR1LWTkF0fXTl
fXh8DAAh+vQCrBxvWHHA+d6FPTvXCV4jheoeAoD26G49pptOJJFfajF9emDWCwJN
/NogoPZPdlQiGMfS/JLa1W47GrbmEDl26fHzcz8Dh01Io917pf8dcGKLNZnzM7xR
Z4DmxkuY/ci21q2YmVO2TJPXGUfoKOvEYafEbukqixksohBL/BIX8uDUNTwbGiaB
pYBEkKVmobqABznkfNv4tM0f/0l85fvjarMzGJ9HxxtF6pGERJOSOZDnksQSze7A
ePhqgXInzOTth7b628D4+YgbkgQz+VORNvJgdQ/AnOQ5YrrYnvv0T5zNT1hZmpy4
z5tSu6JrULbfjcVP5htWNLQa6wlwGoSz9elnKlYIIQ1TFU78hGVFWmW3CHksYENS
LaD3safSSe7B394Q379n9HopdEOhqhawgb5ke46jKY0WTSOitp17il1Yy5g14wZu
wkJd59V/8qsyd0hf9K7InbeGntaGqig8Y86dWe18n7xqHIrYCNZy+ZL0Fa4ZZfd6
aenXeV6MSReJ6l4l/tZqX3u8ehB9MktrxXY/tOYRUBa8lqyItSAMqfoTOgn9nn3B
V5vMV4zym28vIsa9GZKfEsOaQuOXbCmSLYI+fvh+uJ+RpbjaAHAU6Js5N63f8q7d
Qt7vQFILTF5njwuN50SPxmSIOAmxTBV2MCKJzMvbFmV06O7lRwaJ7QZAFBkkHNM2
Sa8AoT4JY40ypofTGpp9Rp+wZdc5hmi5BzcGY8TRB4nHqpbaaH+v0JGZwHNDd2Yj
7bwVU9nh3hgBEfNjJupsV6KfQ2Wj6xJc41izUTK1N/WPDM3pjM7I762+vgNqajUp
rUZEL6sc4hhrXzGTn2E2tjyq+nr82FWEgCHOavlHaZIxn7oMxHTViua5pQ/fUNzb
WvBs4rMH69/swjBj7PnDY1Y5h/n+SeRajA8X6LxhN1LrJN8U54aoXVrz84qgOeKl
uTgcgQ8sJVZRsGhVhU4JMJcm3j4MH5sU9Kkl5uPN1kaWUf1Bbz5oh8RVScebIJR1
Rl8ZO4M00n9NbenXMUq9+VqkhaqFKOjtVvck+irZfPD+tv20mOjgo72rFv0z1sfD
N7xSUJLVfDC97YofyN0vu0lwlVy7CWt+oz6+wiEMdG2krwRP1TBQNgeF8t8xadGr
nR2t8c0oBDh/3N+fPzuEsrsj17hkY18+B+lym67F44GOCum/+PSrPObzTD2Gk7EM
xUOetlItQNDGzuX9I5s0nRcEvCXvVTJJGvPWCBaUyxSoyMBH1NVTWFWIkiyN5Sud
IYYsVRdC7iCqXRMdAGedxmeo1yYDDNTIG0Y0nt7C8mhJ0u1fTfGBnHHHkIyghETr
JeFztusmwBZAxXW2dHw/1GgNeNL4njeI80C8by/rao0lRH734ra3gStO61a1zSyC
L/As8wXJgXGAHpWL+6uqQTrdbToQi4vkVj81xEwjRpIGBQtE2eF4ZISAKsTl4Acb
BHsqhkE2T4mhKJYuQO/kvd7MDGdgBnIWmi6uNsguce2QlDraS6Jb79VjYCpqJeXX
uMK7xnG8+sdI+dDNo7X6utLQx6Ccm8ohMYs0bHbuqjrK+uJswpVC7cv5YSp1aWn7
9QeQc9gzz+OJc8+lr9pfS1dhyXKjnIiiVZghkBUIXS8mqau1s72/nGSavCQj9KHx
du1t4ifGtxjJx3Gk6HP37KTTVTHrmqW4ppjRBriq/QVzy+AUw+FyMEqws2sFmogO
oaHKu3poxMuzvR7pyGKvBsP6ATPWyr6sqtMhQ862NonEajaef6alNHs/LlQ1v2Jn
kf6Ivxiy205rPNvX+YzX5kXadsfkRIgOKAcRQwc00RU3dw7zMCmbUOrWkT0ZxARQ
QRVgflt1ApOU3QTcn/hXDqa6lsT22ukCW4pmF7oX0waeXJ660SX3YFMxfVxNdT7F
opWgvo6GVzqiIoL57KANlvVA8NRVlBllA+QbaaE/1FcKVA5obQcCMaaoX0HzIYTr
RZpevLdE05pB49xhXAcAyL+DksA9tnR7ZLx9ik0/zYZmLTlhe3GnJ6iQIatkjwUS
LG7IYYqFW2+iP1nmxLMag8ARugECRC1Hhk0J2bY0CAMDiW02rEluev6jhgLBvxcH
Dt1AZ5JAMdy5sOglDtMKPDKaAaChfOlgn+4GiGspnZ+RpwhhNJ5ni88or5V05YIK
Lk0xyDamR4X5HejlxbE1AOB0tVxSnKbRznwIZbLwjMZz3Tt5DV+Cu2g9xPmlcgRC
M0A4P8GcoDwXhZQGhy48EC+Mu7UUXH8+J7xyEDdHUyTLP5dgfsQXFSOafHQ+W2XK
XsA9ZTMtjTNzVX79cb7FoRrw3VjZnndQUfQtaQJTy7LVsTW+hwHyM47YaPviyzJ5
R2QU09vIEHME61ap7NPHvqen1pc6XRHNF//p3N3DSjL7tPzZkBQY3zkMoTcYsxun
mYDf75S3QuXseMkDb4iXzD5JREsdiLHuI1qFp2qSy9GvAAmTxuDru04vp2kOCYnv
L6xNg1CE7kDe/i76TeLxLjy0k/nPtHfUMTGeVAgkH0DbnH/p7vYnNdEinOqo1RZk
p/wBsn8oQRBbqrWTLEiB2h1JsAVHFo+RC81jNZnHsKOQUZrk1BC9bEuhDbKjvOY8
G64UJVQbPorsmYwNqNXMSxtyUH06crtBkw5pUXz/Y0BJsbhnVfmO+ITWsWHfXRjp
vkKDirNauWKnJggYemy4w/OLmI0J3x2XdW2rOu1Dm/W8o9YJsUArJ+W2IvMUPfqf
nrlXRw0HFF3ik0Xkk/LbRDSqRa0snT9PqrEulOoReIPbxnd95cxIQD/B5ep6k2gg
Nrs2XlizPwJ+g5dRxNufQb20VAgp6YUBiHi/YAeEKOHNeAQ1rWjuxBtX2WpWq7xY
eMo8VGO9qbWhRpZUY4MfdCl67mghJL4AxEsSqedlx7wOhC6YG825sdCpq5MvVyMS
w054+0jREV5JNMf2iaYTeSHylvvvwb5g2p3vPNi/wBBjh0C8ZeJUYZTtybIsXLFM
dMsxwQ/DRzFbzsq1lmLBsdcSJz8ENHEuVuJi3IHF3+lAi9BnmsvESxv4TUVJDhjg
8qK+F3FZRfE1S+Tc9ULhppO36RVPK94C/L/3O7Iv9uWyFXujY55+5dix4Jv07Cs8
EmQFfetPMc9IBj/ycuPSiIn58J9+a8EMJ5ERbM4NsLb1TdmRSIGv9sQS1TXbweS7
Uh2nf2XkN1Z9Yk+KHIlOhx+RZD4cH/Rh9Ahx+2bbJ0JYDuknd0RiGEtVElkubmV0
6Sj+rlZ51Y8vljbKI8KZODguNR6SDcu4Q5SQ3MhKKTMqs/KFJJyzxPsOP4xgZRCI
nNM12KEVOmYeJw8wVAyQiq485CyucxOPBsSH2aUGJ1YKtc0zE0DaATtD6MbZOPKV
9vzgiZc5YXB29Lchh/UWrzM3SrqhBiKnzMQJOQUper7v5ocfjvWM2pJgbOzhzbd6
mZWgw9AWgzVlebrUnE9IQu3BOPGv3eUfZAGr2xV8EeArfBPHM2oocEnRTmTQOI4d
+OXGgzWn9PSdtzZWWv2khPE43xB1o7gIFwUUEUWxyfkbFRaRsax6ifVl35QdPoX3
PKYz0zuyqZ3jweSuTXDL60cqQjJDW7o7dbKg5QMf9NDWZephtWXutjtJXVsuLVC5
qvnMVmPyy7SJ+xe7cmGK8o8B35x/uknQI+M4h0X9GnkoZPzcaR6vZPl0cO6H3Vdh
zgKzy9/27vnYzTTdNTyxh/IVTXrFyEOcprVIuQ7HMHDC1WE8/u6A7w9AJ0dJM5at
ezIAupkqSB6VuzzpBM+w9vfE6PygEQI3c+1uqv+t6+RC9dLB73L+yvh1lO3iFUvS
Krrsa2HPdLxVB5LGIipyawbGZ8AEH/VdjgksQPP4vehXQrR1WA/LwQ7WqtloUA1U
GBmoNdj9tzrBisot8oKS9dJLRp1ADJ16qLwLg+EBWqmQgle5V+og8q+/mntzV4QR
ufdeZy2lgu9vzc44CeIVFA3Ccy10FWupb4zwi25VFBiejKEFfsIBTfrHrxUQusuq
GhCAN7aeRwybD6PdXskSThqnnyqFXjoEgR9xw3bqPs4Q67mF0hMggm/fgLwct2V0
D4NnJwMmY9BQxPKJAIJTh3erbiM+CXNe6qQg6ikrjJjBqvvlpDIUH5NrUi10DLP4
6LjmirqGrFaEdgd6nrrazkKAj8X2yQZ9FnxCyXxVGCMCL12upOuZw1dvoxTe0M0A
99q8noYz7FKm6FeuT8WjV5BSTlvF52twwfjA2jWrHrNosb6+EKzMeQ0hlXwc5m2e
bN2+5H1aehFTqwIvxftPz88z1XUmh65t+lTWWxToZSKgNpdiYThTbpRzoV9CVf8v
lkM+BIFLvo/m+EBqQFZJ5Qyv6dL9acwDFjqzrU3G/tOmmU0V9nOAQKfM0VANrQqx
nwr9QA4Qz5ZCSOL3Dm11JqzVq2SGjhixilZgzmg+g5Pkbs6wgcrMhSq7Fn5g00ES
dbTRqgkEMasU83l6dGF8S3lXGn7vk7BZHkyC7y/GcwyYOJpt4YE7Et5d7GzhQ2X7
LRYwMTlL1aeyEztZS4CRSeQhT25dugsyN8q0+wpJD+xMKSxsd4Yq8x9ru8/ThPrq
91M+XM03R2q6X3YxTrg6Pv37FiZvdInMcJZW/oBS79tqnMw/a7i7yQLgJstTsr+e
dgHC/tLzsk2MHjGnfjM8t4iB4cqR0FAkCUyp9CpxclUDPKPKN/VhD4vpIdXbWu1s
J14xAUc1udsVXaY+KqKYvgW4qXYo2TSdCd3w1J91cSezkPO5JsMCd1FPkZM7N5GY
hHkqOlpAe1UyFn4hCtnwECJB5++xvNQbcjmGQGRJ+2ChIAGyQQm6Fg6b6EscA/Tw
mIJvw2Y6gCd5lWcpggigSlgysrVo17bhz0yC1muqQx3r+vxzs1MPz9PgGMzDjfbs
hmqPPsvtJfkZsk3HisG+M0xQWXTZZsILEQyz9wfrw143ZZHN45SRqXfcNz6/kHeY
JcbZ2IzuUKXmri0FYS/GWT27DwVSnauhgDmwlhz9KNBzAqm4xabDt41eH6s5nKv6
Um8ZSy6M8RRGou6f4lLzbEcUjoYGlv7XnSJhlp5SYMA4PgmtGR87Pi7eIKfFkYLp
dDgC1Mv6eHCLtFudVOn0M28196ucZTFj9GjI7/I8FzcZEi9UY4aSsvePOyFGpaUv
2mcwl7dhfvZIIa86pc93MgoCLQbzu4xRwbdEDXkJMqqZuUWYR5jdQbUOA61nzHy2
XlmIp6ZS3S+gAibl/wH8P+MCFmHNzBQZ60xrwIWYaGdBWHuN7ZIVgMuKESPezbSK
hKHMngsmtiZwHijtLvB11opdSw8d+R0YReHqiYvSlPznqgptxNJW5+SBT/8wDmrO
P4yr3rdXG896u4ZF6CR2PQ9VOOUqEm4cXIN9C712Liq/I6BuCmYu2TECLGurVBSv
e8DgsBI60VFeHnpsbJZjD+9xOY9uSIhUkuIvJ+LLlbbQauPVL+lpOXHa5lzqXK5b
TQE7h3nBFn2Tbo9FNdrhQvURSVCI0d6t7BiynxPsEch11sflaU4ENw4UK45jxUFg
M1TYwDcEWfMym/NAaVMhElpX7iE8KoFY0SLzbeL6Qn57btATte7FPmaM1Bd0V89C
BT4pongQH0goB8Yl/DWUs8ViJ1vdeDlJ1GAJXUbUJQUqWRCD6Jjsllrjd+HcJE7H
Uwc2w+KnwqXEkEdP0pPveUmZHf6Y4PeM+a2IYkDfvrcDfcETH6KcCBS+QN1sDMeJ
32Wwje+CUWTWwwDUqvYTgQRz1ClbbROVCasQsMjBpMSngS+Vs48NBdfbMXHxkBzF
9BO+xpPbGOv/FsHIjcjjm8AUKhHs/RxyBNIZuiUEeD8jnPW5JgdTGRxUDenanLBB
ZBtG/QBUa8iE6ut0uLE+HYfIs+qclcZz1am8ZzcoOlHINrzWnk2J8Os9foH509Kb
t+HGpm6e0LjQYO94X0UhKTX8sd1kuYDwObOR/C1EAXwHE+ILPJxUYgQ9MMfiAbKw
O71MzUKnc4y09aAhSceKigbg4Pbr5QTMXY078PT3miNtYPBuUbsxTM8ckJw3jQqC
kEKUqYiyCuhkeNrU/Px/jPqFGEbzSbBl1R8tlXW2qsktUYik3MKSd7fMA3Mo6bZF
R2TBKTDhEc8ing1ygdw6AqcwzlMJNAuNofBIBsKMMGhV2uhfhegLLqoRvBQrG7px
agxLUAOp584eQr/8vKf7gdWYl/FjVsdeluqwbgortZx6t7oYfPs6BF5O2iJpoKW6
fauWXPqjo7PB3nGzbnrGshk2QOUNhQrAhb1FR6WByctS71dNkSg0IRVn3LSRSBDr
nVjmfF5YLWFB8VJqTY2f6M0Vr+MRkxquYjgyZX5GptTrmtJdViySnZixbzfJOxuB
qO5talWsXOLvbnLM0QOBkOwEWVQpk7TXV5tRP1OZz7g3ry9yVXeC6GkoFMGwfN0w
cnY+J8CXoZ3C1uQE0Uhqtp7hRla4eMPpyedtcOZoRDFS2CeIPLOnUY4Z66lA3ph7
SsUOicXS07bIrWLPnbqOaFg7phVmsaH971JZcr/cU7vrtkVDUVyjjTdwhLlLs6Rj
aKkFPeC56YMCNkmWVHW1XvOnMhfpAfeA6wJ+aqi18VpBRdZcswlAEs+DOE87jgVV
3THtsgEtO9tR7uGQT3jdpH5bSRjpihqWBawXvhMUWWb0R8FPDM2j+EuNq3eFNU9I
WWakxaKsdaGxhR4JZop77RLJVWwNeFxZIWXiB2nhOVeDI+YosITFlwrPxq0eHF1W
2K32t6RYfPusgbTZ06QIMenbB3I6dFMhtQdVgzSOWD4ReRYIF++lO04UuWSWDvvK
EgC4fBTNmBSQKMhHuuoy8GMLvphWAVT2kEN7kT70qBOyCUrMad/fpNM02GYXdV2B
pOU1iWV9xY2ctBze/YTzFyD5kEbjKMNBzLV8AbW1FNQ+QVh9V27QN0eBMyPplFFt
rtOu6hUOfjNqd1YEJ22+oKrcvaOc2ODnGyiee3wRBAQbdzegrKJQ/CGiDD41U22e
mZ49lrm07AIXJTNWLQC5f36XjX0DLmDJDVWtFx5JkKLcwo5055M00mR/K2lTftEX
/gqFpMGpedTn7ZjLvUsO8J/oQ6ZbtdC2M+C3C5x8v8Vs3sCTuKLM9VhxPypcdX29
dAXxfi25DB07v3IcVXOT7W/5OKLTRZaAcEekRD6kw7RKI0XubW8BSesEOpAw/WiX
BsVQynWOcCQBxeJ2EK5/Sbfu7xmjVdTYI1dtHjzWBd38dZUN5q9LJH4V/w1IgaSX
PauD6JPWrth18Lw1oVpkQfGWezjTKPBc6Ejq10i+Ur9CRk1WEOQM5wx3hVyFY5ZS
ToPx/8WdU4EPnHd84jm5VRx2qZBz5ZcSKJ18sEMfdeuNe0TWQUWtFwUh/u6Kwzn7
fMTejBT2Bz6/wOCi0G02ecoebXQH82G8RdHrYx9+9Pe2OCrulCZ3qsy5Lx43URRO
swAKSjK3+xJvLPD4yq4VYA4hDNzu0x0Um7UGgHSI2Go/srxXgJ7g8+tXc4WA23pl
dsGIySyjRW1GuSY/WafxXkHXipuQBfM0TtbbkOyvbjtD+iyzP3gmQp+E0vkt3h3t
6b5wLUGaTnIKghxyhGnNJUAq1vAQ7cL+GGLboZntYYqSTF8eVM1nCJevvrSPqSls
sFCSbWoS3fEoda3isolpPG+fI0LHDX5jektFxbP4GLYEqKd/kZGFsZm8ZkU7sQys
qBjMb2o/MXB2hckoWU1yWi647vzcv7PyAIvzYfUoVV1EI/c6qvN+TNhv5VL51N5I
zcHDmTGBc7McfziyGtX1xB5UDVKj7O5j2/KzzcHV9/gHEhrgV6mTTVMNoYcfE66s
DCrygrjhREJTVgHBgWA2fMmeS4dLl3vKkiU+9wbSeO8bYzk818xOAUJaBNsUGWJn
cD7SUKGc5eMGRgC7bHqFt0TQfhk2Z16V37VJ9W9XDcVk/Ap8wkbULAERx/mHIi+N
r4+Paxo9IGdtXHKpHgim5jmvGtU0WcIp867Bi7YVBB032dEMA0jxRLuS2mCtmh8I
ITyZ4KKMsrIDcaMRTBsfpiPS1yA68WS85eDXRsxfrAqEJsq/3uL+8Si8DxIf6JkW
D9c9Oaih9PS5Gm7V0SK0dEeTWrIj4EC/04Eg9kbXMj5qnizmukl5YBXZs7K4m/F4
gMsXXBrn2jtSfAFxZTXRVKdzyB/X+gn6D9v3jA8w7F8nFQ2SBajPkN0hnVGX+Xi/
a8MsL3zS7OVaOgbXrIDCWX2USglNZC2WXLRd8jTxHSOkXAjdIkPfTx161Odi6qSu
tJh7U1ilL11UoW/JaaDA1GMmTm01r4ECarlXaH8wIdHZ2h5NWlWsYQFgslEoqESh
v66S8+fC5mNEtHfL2ZP3rdjV7ETW2pI09tEf82z0wMFfBBtqGkXoo8LFEiRzTs+u
PSMlqgzyOOuKQouA4aNGRcILXrz68nVokQapPcvCLYUBgSrBQIni3n4ISzbyAPF2
nVs2WKnRliu5rKPj13RrF2hFm/X2erMt14YzcX27Iw3Lz7JytzXPdmUPZ1mQgIF/
fjJ3wWvG109xpBmOX+wBkMYlciK3OM4SPnhl5HhfAMEjy3k/tugdA/9HuSHb2CEf
D7LiATpY7Ww2mcTNhIkF3t7z/jKPxopCWn9cdnBlG1sTU4qS6c6Ro2edeWAI/pR8
EXSyXyHDaxcp3VzaAzmNPvjLD7VipmUh/PI3L3YxziY5lxmw0Q7ggzBnzzTXQ7uJ
qVBF2qY8Y0vDKbBmjG6+OjH1+CIkg3a3Wo6D9U2q1XATCh1N0KsFu3M734DDx960
bM72ImnjQuL2PgMNsXqbt0AytjaMOpMIXI8OiWbos4ycrFZM250qjf5HZ/ObvSEk
3//ttc7MGFjp7ZlT65gXAx9fLLEDLG/jPU00cYcbJT3WF3JXl/6cT7ipNwH2YcdS
e0pn5v4SyzPoP5r9qtU5jMSlMWYtLl8AywuCKAx6xRjCGeJK3hpclKCTAH2IcfB9
Wk62FGT6mlzXLOKKgttQxfY1mltS6Af3fcdHFyHqArJK4nH4YIsQLzDs1+uv0uaZ
hNp4IwP419ZaIBMwx4T2QqafFcRAVIMrNGeCAmuGLXFW0yU/juVSOo6ImP5V0RlO
Srjoex2gvFmJDj7oNTSHNK7xIoCrxuaH2pQ4bm9D6be9n4tarE/jO3Ee55GayJKS
jxcCy6AGxVvaLXI36AMt/CxzMBuGQp9/UW8JQcHe3oRkWwlvmuG+N9SOgpse1aGo
IOqGefTc7/TE5jgXHMTxPxtOb8hQa7VWEiuShxIRukljvCZOhdFBLkfUz04HlOWO
J+2Qe9CP4xylx2op+Je9aP0q9lsnNg5cqFEBpAKy6en1YKUHSw5/kF+rWSyIn1H1
zSps5kcYbph/+ZmmcXf9R2RT5FhTVuPTH948egxjhbiSqQpSM+KN+2on8qf6+G+T
63t4gjEArCT+svPt95DKrGoNQuY/oYgP+ckbLBhv5BfGoZozje/eU+dRi5007Fz8
7umirs4mNuPG9XRksh0qsP/tUP9hGNyIvmOJzI9WuwOivRzOs2symjwwH/wx8JVI
/PdopqVWBMihqX2drSeyRqhJlto6Rl83Gsqy185HaK2yE32FO9h2+EjqfuKaupjJ
ZdGsvwNWZENojTIfd9y2q974BgN5Pihl8H+kqi/xmXxNh8YiDJFV4JVu39+9vKWU
J0ntkvYj/rBnaFM7v+O/5fomIhlFYLcQOk2nEmP+2dTFoNzRivZ+ptWyFkKuLFF7
LXX0Al5St6NNx/WLnUJkLJEs+7X1YN9Ez200zqBBMEfiPrUQ3qak+qCaGGVL/Ehb
wgM4E/KV3nrtAV3KlZM69qMmBkpenxxMF7LuREn5KtvXq5YoEzqJHOSHk9ufnctB
OlHPvsdVyFCXDHKE5YE5O0WdgQRfaL7AGiF+WRGgUqpV3lT1JjQaJ0LIZN3OUlyZ
yhV3xWT2LCBjAft98CcgngT8TWtQvr/QuIPGw4pybRna+dARCTlKbNP8pLPrfLLh
UIBu9h2jO7p2XiTfEwthDqQoLR19/wckPnFBHgtjSwRAcL4wY/bnsVoPL8ORVgm5
5LVAbl8hOQMPj3jweHrnXF1gfIE8TFRe0wtGdX3Hy4pp5uvCxgTvQ24jP7rYuCKQ
xrKZK4lKR+deJr6xCDC86koa4WVMi0gHPDZQCriL3tz47GGCf0rFMPheBifvQQhX
U8xIQrjVzYDoYfy6empN8gM7MCwrMzMxWaR1yJN6DlD4yJxZtoscGlJ+AorLkY6T
rjZmhttIZDohoXC2FaEOByb+CYrmT/wMTbrbpPogBSDvJJ97VsCEVDcml/UvS8Uk
FICMAp39EIVCE00m8QaFgH+2KoVO0RuZw2szlgZi6b/cPCyvSkym4QZUYgUFR2Ey
E51jiz/tb6PdFbk3xZU6TJ1ipZbzWj79iv5rEbMP7n2f8Th5xU1AVn/0f1Wrm+5t
bmMKaWzYmk83x0JIwfCLTtSpwHUpJcngGxCtqazhgn/Gc9hUm3Ilik+QEQ+62Kr3
A+QAKypifLL7K1uvZmSsNw74Q8w61r3+3QVJrb0T7NufigvgAFKgMZcKGob+y8Su
ub0jJk/B00mLmtS8j/UV6U4PghVVRNhZQRs2PVzLhDxvEoDMe0Ru3shUO+4gTpJw
HvxommKdIhA2SlTDmztuYJ+PH0ObNYP72ImcbV6E5euRJWIZz/eILCQQqWH/ZGmW
QSrXpy3AP95Qj5yOmMsjtuuqNFVXYPHWjGfO7YU9NOWuOGeX+I5vSF4NGZDGpudY
E9wiQ4mdIYwPp5t5jcnQUQI2f/G/9uctmxVE1n0vNfbAhWVmPcozhFR8ArNdrceT
Zz0w/rBpgozS0Ww132wP6J3vFh8T6HTLc/AIsJrmCXiJ96nnUoWd9cHJgz7oLfYe
mRGgzNwXubjIrxut2nBPZJ3+rxHGMODTbEJHzehH6UCOBeEKv1IzX4+Nmadoozfc
w9qrwXPAAqhmPH6JlhCO2bfJ/iyBje9Q5w2CaSmvsbYcMDJQnAMc2ZZwyipvgDh4
XkcxR/gLEab7WVIuu1NXooh4iTVqjMmOmlaoZJPNT2Wxtz0wX0ok4pKtQsFcFqcP
bUdHPL9cBVWc0jOo/EkfvQtU890Ji/VA2Ip3F+Z+ZaUPRcNQKVcYK3vG5YUvaOwV
mHEKQUX2PyU9Bi8BKmDQ/NCLe7f0yjbiWPdN+HLNxDEUe2rpTyvxBnYxDmd1bceE
Fgx7Sm3DZ+/F9TJInnaCYrek9FIaV8YtXeo+3YEwIccbPamXq8zjhoAZFv3OTLkC
C6loNrDefmlEpQBS9vERmRAiETL5lAKoF73sPOXekNTBAme37rf0vKhGdLoQ6H7J
S4hawabYx2C2dyrEK2JJn3kjFHp/Rjg4HsTj2IPibvdM2ArthQAlVsU3apkqqn6m
4Fhb7i6fLWa1fE8cjE0U8JZI5teR4ktBeK5KWtRaOTkkEKBcpUtemc9nCzLTlGhn
8h0YF6TwOr1jv79zUcuQuowyTsSnahfA5y8JmEvPZcxkMgCebs9HBy6wV2Fa6zZp
OLFD+oZZQGwR2lSgcRlQSPYNtLquha5yNlWJdpOIPed1uBuZduxAf+pn0doL5hfU
dgDffnVrfZM/Lj6NPArL4/CfQk9jk2UA2nqdy8VhGnzQTa+FV+ktmt5VJD3VJwwh
JJw4zB+ji7Ph+rhBLEI5d7YZlYHBwmk4GNJUygbe4DfJKZIJurZkyETh9scOKPgL
mik1g/Kl2hGvSupDO4+wWBpoj+DtCEyb4/QLRw8xru9uVH9LWicNIFqR/T9WO1Hm
f57tPmBw8htUAN578Nft9o7nRttG8Ew66zgr9sVsPoTi55+tL6p9bSSNVKjps8lU
WbsgnJ21lpWepdErN8TWVmqU1aPSsRLigdahlCzCnclJuR/tDi0nCy+l7d/wnQC2
GDAbTeUPU3SF+dXJSThBP+LvurZ86+vgszvX31OK5SyX62ZaRRPDdCIu7Dj/zvwA
V4LbCG7p28MYuGGidRLvrTWnOmYy9woQxamG6RpAlwZMfKm1PrMqaktuZJDZMltQ
r9T5VzZuI+Qnb5s8bq0xtSAfpC/6cE78A0lljmxa1U1dgSJdUs1Y6otF/hKzBI2I
UeHcb4xINk+Kj1xR3s9uIJgzXei4wkkojMB6bfcdqyyUKBA9gDwSmMXSH+YXWOf7
J5cGefoTVYxGn+0QhVb9fGTOnzw6xw6JAoApVC72cdp7R8spCeNZCzCSLK3Qs6p1
1ICc4VP6jd0p8yJKfGbLJqUZJZRX3dVoCiLKgrLDEGvmhlvZSRbwr/IHTcE6AStJ
ao6QAaIjcFxz65Iicu1Po3vFtmORpUMWaqkIh5e/ZoicxQse3qx8fqA0nkXpClB6
afklBR8nR0CvW4UXfWCrCsHEiscDAI6jOfdPwvfAg/ex6LGcA6Wiqu7+pQrOJ0UI
GkQEUwGQY+9P9cz0HPvgFIeVV+3Q9qjP+kacNackr8jjVi3q5eAerj17Q/2eg8gU
npzMKj4QHg9fXhBqYhTi7Q7SG15RUyyRFqUiq3h+XDmP+9A5f62W4+hrfn/BMksV
z5W32uAZRHY3q4qFYyQPYQrKKLhyJY/lMx2ij+NmZsEmYYiJqY+XmimyjVjvlOOG
3JYUG15qEl4pJTUH4abvUxD8pMKhyNcRgI9RSrJOYRB0IhGSUf8EXSOwRIBJAdD8
c+9seCIRTIwCRjqIoLzNYzwezPBop1KsbTACAoCDiVXQO0CnqX/sUJ53cjaZse+t
DkN6edaVcsaOykNsseMQBoOc3aEmIZ+R4l2SNoDlKfq470VFBowT/9G7Ap+tW87R
goy7Egnq7JwLwYHnvN/yA97rckNEkM6wZoFJ80mcB3m38a/DcSxzH352PcH290Th
tYx9VOHC1ZR+p+WAZq9mt18bZP4AsYcvhX9QIcM38oplurZ+/PaLT/tLE1wwdTlX
dP24zXAAaT3LGAf2PQc2TGyuKJZ1wao5NFTZpsTDOk4dIfnUYe1aJQCs8Uv2L4X4
eYKneHl21fisrSIVSO+5PHOtuUpL0fKuFk2kwakSmBeHOO5djJHOSUF/LGNOqV3Q
C3sSXt9orrfdXzQ9/miOgcu8UCUzlFKe5Kft++871FFTRqxg7fbdY/NrpBEcfvUY
l1rWXkn7efIMjxkCx8PAvHKmn3KBCRgrLqbJIDGe1HHFW4IPJKArW8+sVwf0M7iI
idtSEJUZrtlPaxlSfcSutkbbPbZT2WeaN7/ptXQuF2weR/2Iqg6AMOFonwhqh2H8
QOKPhFZpLcJkDrj9QZkWawnPTFEW9GqKXiVXSlflcdmyzd4zEccF0x+5eoXnNCpn
4fbyci4bE7GazvGmTODiTsUA5ZO5OpBkuq7016C039AWG9UyxUE3LEmA/Qka2MFF
ESEtg4OvuFsEOvd9loXN5tZD2x4+XWFlWIY8GNprWwQtOlDPmx6jE5iciXDsztb3
I7sacxSwUc4QZ4A4o8DVPvowRcaAE2uKl+i5tFzTDTH5tur5SwxTrn8zK1TARofD
vWFX00kvrFSsbrnUWHumowD1GZ42wxXpJ+HtMPWq3leHOGE+Ro/s95fAwFx93jzh
gsLhIcEnf8Yvc1TmEdUZimsP8WkF+S85y5dGyGCyM7agHktEYRCBGOX0MpwFt8Xr
RT7ipcgZlLKvaj7yBmIXIpjjT71BIAjZbv1eUP4wAklRMUOQLbNFuN1rCejlUne3
V2tPH3YiZ4tgCzZuLfQFOLZ5vd3x9kRE2MKr6KuO/GZUG7C3w2Kvv8pvOncWp2az
9R4yWcpBjJtMc2xH3cErOiN10LzQBT8b/9YKRctuxKTR2nBBh+zs6giblw5Mh54+
sJiuZ/vFqOxLmn8N+AjSVK1RrAJAXR+PJ+YW50FX9bUuHZsGuyM106wRdqGVEo0c
69fxy8rXXRE/cwqeyl6TGDTBBXrrcKGSa3WuEaKqVKFhe6V2Gtm51K5PThcdryQq
KxGfIp2Czb7UuijUYjr7/4IdUgVS7iTcsbJsLzxWbMud/+L5fyZDHhiVNqCqpCo+
kt0GqX6OgxagGSzMJCzFxbsrsGD32zW6HZHMQ86Tn5vuu6ufq04cY1ND6QpEGJfR
xLApinTRugBMzR1J9d3vrHTm+v3+/IUikncZNyZcxa91j4cwqxrRtgCRZbpqK/cv
AKvn6HkYZFZRUZ6cbCQShcYzH8fR50ONR2/PUN2/h1GLXo079Xg/pcr2rSqr/Xj7
dkFUxRMuEGeA27gi8iPUPb+Ps5+nK+ZjvHhW+3eAkDgYxW8k6nzMTiJZQruU9rjr
JVh7UlJCFX4Zz6mGGS1f1KD63pX3ORASxxrNkDxrYj3LbK6ZpttWjGrPpaCNyigl
W+xD6i67Mfxxs/fxwpZqJa3/XlGd9S+tuKgtIs4Kz7fS4GOcguvnbXWF12Fc2Rlo
avJm+bhiETIgIjI6D3XyXUL42Z9UHzMCOLFqWhJWZVhjSC6/fBQFI26IOl0zeR1D
WQtay5x8SAGZSN/XAmZ+bcarKlVe+Ic6LDCBEzoCuIL+UvCIiU1Icq0jxl3AYc9w
2Wd/VL568jtOPDlknHz8EEg/42eZSBadZp5gG56hO+QenWVrnWRkeN4v6zoPuSMW
DCUHHq0qWeQ8KsFHoG3wQyWweB+69ysV1P7P4H1PbDkT7vVOSOksu2CXf4HlnRhL
yxC75b71Fs7i4v9/gesuCIOmPFUTx6R0hv3KFjF5150DuDBRmTPS6Zx4YRmyj6ah
4lPDJOsKSOvT+fxvCVGNB2mo+wP86TqxgOdv0aXmq9gR9zOJA/0zWEB5GegOQMKU
6lciksalqi0FkocA+/bDfDLlTZq8PoZ5ElgPdpB5YQSQLjSTgrIpS8FO1P1VYnoK
y1a1XmjP2yIdH9eqDPqNsueWDIaAx5hp63njulQmFxiuj9O/zvG33GaQ+qwaEKSv
lHgWqkj6Jig32sHlh4LPKGR5OXIFqJP2VK5ss71myEpcFWs5Yf2q5HAAW6MTzELm
74BS044EaAZfx9m/7CqC3RZEyswTlzT9wSZErPIcSiPHX1uv4jmSuHHh9FvUSwPj
QMTdDZLU/SxcBHUnUl/vGcsk1cVroe+x9ribWSYSYgbSz2Nyu32FkWYFdIKPFSjN
UQZ/o6KZ57jRiPbkNZ7IzYKyqC8m4OOSQYvp/KzZx20ERcNKj5OxMB8meHOl+wLb
Y6emfzqSzF0POyD/uR+du31+3abQcVv++QdI9jj0pAWHK7ToDshsrhaaeH4NYHK5
Tk+kA3uNio4bBXvTC500POf9Vn3roQnXd7O8XF1Aji2LGPeGJbUo7O7BaODpILb2
bjp8GEGvhV6Y5vPYAqF/xjQLHAUe1RDjBgUxgN6PGBGRMV68xOAvDxQ3pas9NVq8
lw1ImXrSaOVsHCHTEdQwKC2V9o02x7W2UTlmUdIRgwSVHEmIAC41pJNChEbe3r66
xgu/le0Ef6KBDLBcQ5zO0/0paiEho2H7E/UJNTVnBNHnxNYi17itlL7yNn4jgWNT
/zmouPhlhvpm1RNKYFJTF3fsNTjkn9W6C+10NTxKrD0hSvhGyvCqAV3eul0fVoJE
hEO/5iDdnM3XtapaHIhe6FSgHn55Qgk8nbNJovaCyxNf+aiklNbK002iC+VPo99r
wQL5umsVD7X3kBunp2bRadXqvcfJgk7cDgvlS9PLGekd0Xo3/tN+HSbta7NSnrMo
e8HYQVjyvJmkcXqz6lcTaLp8o9a0ADrkoelGRlm2svcTwtjTV74cPFwYjtoxU8v7
C4ez04oYZhwz6ij7blimcwm6FMTe4BhLEtkxoFg0rwMYTeLG+B9ZkWWQAMxhjOhC
DuIAiI527K+eRNUg7t2PODmv7Jqxh6AzVPVLrw7JomxQpUoe6yPVUJ03XF1C+IPl
dOLEMq6PyPCUVTDKYvDU6fPoEZa3e77Rdc7xuGb9NUvISjDtPcRmJpA3qV2KeUuy
bYepZcwPxiUJRWbv6g2ie/gERcNkqo1Qo/W0wFWxRTwcDkT2oUetLl1Emvt9ScbZ
ZXdxWvWJnvZemo1Ww3zw63v/1yfJ1gKb3gDdaKpT+dTGZGn+ynwSec71/TTjtWmg
XUMpm+lz4xGAPaMafxHw3WIWxPUpwlODqyHpZKfcNysT6iXaNbgNTG2J4yK6qfkb
AFXncE/cQ20R11vlduWFwZCMTlNns9MlQVf/5SEF+duf1lkjITeD3MpZYDBHOdep
fB7cnFWg5yoz98PM8UvWzhXSt/+a3/HnV/w24e7/PHzLqQDNf1Cs16z0e6myQcXh
7KNIMhIicATeQGb8h4ur66bk51Pc5IVyfcHmmhkSRGn1VX2ZxdGlIoql2rhsHMnK
EuFoKyZmD5W/ckGsflL5DAeLGmryCCDjNXcm4dRKurDqhIFnY31tdNrICS6qWVNr
+7pYQY6XQ5ibrBRZIkrJ+ppagUtnl44QsZDqj1icFcHqu2gukbv5Z0tbEXV6IHDI
Xtr7Zfqr7T9Sba4weB4IOErac92+eL8uFms7J02FlGlwFIFEozi87JRJp3M8dikR
/OoOoYrNhiDf8hHHMdiXcOlfl1noOAV6fumxhTg0LRwOH6t+pz1bMoCup3HeE3uR
/VqXq27GHSdcspKj4KLJpHwVY50OhIYxqB9uhP2LYf3Pfum3jo5nBxouWyLxsxJJ
BvV7Pq/+soGRHW29CLC2lnTnF4yvgmoYcZzWfvqJejhDotT2NY421VWEGb0MwSKv
c43mXYQiW4/Wqb0QkbDK8TseHsTMzsmooVWeUzqTem+oMUfa0zvOdCcT55fhkYqg
fbT472gjg7lq+JEioxTI77lESDkGQCmMSiH4DqDxtWRi3j7pTIQph6bQ+QMmh+pY
6w49fvpzV8s7j3SwwNXc5xEqhIaZrHLORo1yne9BNt7B/3IlACTNS73eduh9sgpv
DGm8mZjK6VF1i9E/VGv2LlEXnPQqbnV/fKerIoKeW2fgR+l45Ayx7tyS/f9wivif
YyaD61s4BeTdxfj7LZSdhCx9nC9Y6O0ERbx+6OBVvWhgGpkJ7EvoQ5oyqZnh9ZWk
qXlADO0jkzj5dm8SKVcYgkauJyta7WPagoCb2xr/0YndGIIZBftPhtsXKXExJgQG
m2rUyP/L+ehqkfXveoihjN6XIELwlwxNna8ECX3yFJqXCiJ5wFKCwbx0Fqbb7GGL
+xv+xB4m4s/hsqKas5NB1zEzYm2n82w7SKKgbaKm+YXB2cndYbXrgr5xYy8FjlL6
371g/8NfKst8Tw0R04TgZNVkgVFxfZCgDCWHJrth88VdyzvuYTg4nh7efMxm9KBk
wTQ0TjTKui/Ua72DgWXQEqOXm6FpAeLLYb/eNzROQGySK8KyDgS5JZydhja8u9Nc
lP6jVHF6KYEk9AnZpsZp/JCri70YsrVJkCoBm3UO+Yl2OVVzJEZZ+DdTj6Uk9Sel
Zlu07N0swBwdyO8oTLAmp0qFYw+Ax3NjW4A4I5oTPmE0tFtqG37C/Ltp4XZ4B17Y
lJK2PxvHoJQlhNcoIwBEVyVpf3izGS+xm7stE3onCAj/651BIGBQvRSgRhN0ftWw
UZfBUM8syfzM8FsPGaWjDwezxohxFffHCCvd0X3WxVKCDWv+u0SyrEVzwhe/pF1q
mynRMsgzoZQJUoQ5i3lx01u0cnC2DPaxSuB8nLKN9mgEKzetmFh+K1STGoucedCU
VLfj/Kk0wT3mU2EwnTwdQ3HbMPzIT0GgYZg++ZofXri/CsTSYgPIcefxAxIAVnL2
heq93mQ7fwHEUS37KCO5rnOMGYsXXL2gjch70vnSTr56We1gz939bV0PpBrGxEWP
b01HavjOJ8dvLWKH9sAyeeOGMJB0OwFXMNRXtdty+ZM0NKjz9utjEXcSye6ART2O
cNOGeiGKRHBv8VdzZ+DsWel5Y4+HGdlprZZkx9K7lifHmL9KzR2sDCrTumoGrYv6
NlPOVmytWHvCu+CJX0id6/wjaXO0Y15iNHN90f4rheGQr4NNVSYwP4gHfYgGNWkh
ofsu3z3yjXp+v/eIRAq6GCtgSrxWVHMX4cU8sNs/Hx3upopLpjxiFfyh0oQRuTNL
sWYfVpTt18h1bY4i9ctkO9rcd4iiauAtNKmw790fSjCcl7CoKwBfTwGdfeF+3/16
SMCbaUk5bM/Y9e72bnvzUvMS1NAAm5KPTqr0xpOuHTgIVlP+F80aLVaqGeGLGTlH
NDOtcQCJPzuk06h5pRg07/766kwNPAhbn2sNhb/VxYMdHH8w6oTSmDbPvhOGtceQ
bTcWKwAwDnAc1slbBE7GkrXZHVXW1V7mQnXR78nXR8oCVlRHNIOopL2ZDvtoXLXf
bK+BAHCMdycTAC91ycVg88IwJd/lg6SvFRdQdgQE1BnPkhP5wL4GihaL4a2R618o
aEty2DnW+xEYcQT0cEjap5asjjmWFaLsEpRYdtypOZOQVALCsneDPW7Wc5WHN13J
wmbZ/1ejWPRLHVHUmIofy+o52d+78WkMRvOFPIQNEkRDvSpIrkqxP/GZZTh4GfcN
2ovwDMBg4yOCkcDUo041PXlvH2jdQIwj1xNOEW+1vHds5Nu+knS1q4/PFNRRl5bW
NEvyfV9FuIaMDSeDbleg0knty8y9q1pgsfhqaiD11wQ6tK7C8X3nL6mkEzsPmcLf
T6FOCiZkaaPCSJivBslQbrxqLJw7c2WUVJZTy8B2OvYgJ/4eRT5l8CjwjgV5+t6D
ytZ/uWbLiN7g8hjqNDDa4W7Vt9ir/nnGp7V2KwTPlYuou1cNLSTN2qQ1n6yy43N+
5gk1NgnrPdzOewT1NIzg5oONx3bh0672U0Fa3M9nNxskf8GHpJzaBG4MQ+vGEWZ1
0TUwopBL33GMKfvOyHfuVMdLYdtmESrbd5uP29liCIFT1D5QcC4Lo0SEXfrPe/db
e7RkBA+y36mLMdd2X/mHY2Z5UuZRFwjdkdiiupfJnKoUGkV4kXS9L/FPcuz3pazk
zq7uXLZO9SdP2rp4JTsktKuxQ+i2avjhCTO/Fs+G3Y3Mu/1TFZTLUkJtpi4LcnAA
JTAPdkvkNUNMOS57O/sHZFlaS/9xX/4EvrfTzhoA0Q7oB7/YsGVy8621nscmSuvj
rFzCaeHhEFaSJCqCYBWlgSPv7Nl6Y/RlpPyPF7om6wbwEPaFpCVyksgE8LMUz3+R
tiUb+eJuVQ9Zl9vH+S/qGrMP95TaqjZAygeLqc0j15Kaly13pWNf/IcVBb8IeJ1T
VO5IflFjas5TBRrI2D/naatIL33Z3KeBlmvhvz+haKfRcgRMpAWcF1I/nrfDjf98
OSq5E66M0dw+XAjc0BPb8LzG+6AGRC+CmpH/ZzWGBVYGRUtQcaCJwk3FZOcXhtmc
A/YVu0i0e9GZehSi2222f01EOzty6mv+fqsGUfq//1JeAsiQX62wEbLPqdBvPr1a
ev46gUAKuXb3eFbKZpNcQJfipxMLT1s9Cp24FXJto3Ewnzo4p+d02IEvERShUf+D
gWA+kT7YG1/yTRGqaE6siq/RTjIq00hVyw7iReIEujHs7Zv4E/3ALXFvHI8tiGhS
BA2n3C5UBL3PMBPIQ3SJM4pHpcFu7Pu7c0V68kgDe7o9bxXQJGBy5K6nrZl6Xyq+
7jDyJ7UuXIBYPNjyarfzTfaplmeLRE7bWWsOUgvrHKNxGoLGnxkfr56PfAL584NZ
ZsUPWPb/B05ek5HQ35Ir85uHZJKKPs0au1rv4fTOQNRjCH4eYpv1mhnP3SppslYk
3w3Ua7MM9pPjsYRUVB0YcjtyTIt6b0xGnXqoDksvQny6m+KkErbkT8PZ5yEDhkVE
xsBePUUev7EWj0A9zkNrZFXwVTjZoLgzJ6ZQfPsnzanD3sohTVxTPNOkbvgsf0wF
zdfDTRS2yGs0d7aic82bvaGy8vE1dUZceaVDU+XX9nVi4/l6zVKRIHcPP74HcraZ
+4neTSIK4BR3uZsrtewUd3HXJUWX15k2p7/bsjvIMG94zCUVbwqe4JfkaTMKwef/
AIu0ITp0VBuaFiWTIq/1todNngo13D9xtDFQVISnnO2tdGJjeOj93al+/IgW41dE
ZQcZgIWHutNyHemeJtY8uY8kdUiAuQkxv6IDWsFV+6E4enHT3ZHuygi8nKlA2NUu
35ctg+AhFnH0bKk6EtlXQVOzvud8DeCPFynBFWvybR9N81fZqRQ3fFqF78EBb3Fb
VhkhP9xuwOIgAuq9dqpQk73JfBTsdoCtMPEuQLBY43aCc7QWcouLRNE6wKPeflRK
H0CGsMawp+4J7DOvpKIikiV5kGsXQ952SA4FxEVIhhzYfTse1KYxlKvink6D7gjI
iPljF/vmMhfmSr0i034VbiJKLewduu5BkdxF88qn1CtXoO+riJa/1L6lA2tXWc2Z
FQGo2UYL6NyXNhbGLZe4jTLTOp5tpCtuKdC2H0UJcg7/WmEMZhcyhZz6Ld0TnHWw
leqEA9d9mKQxM3T1c+FZVJVKX/U1f72P0TPDUH4UZjdv3+e3PhxrMfdU7ynwYx0L
AYl6o7Usj9gaOlcvUR1gKDFr5kbxBs4ptUD6mcV3yoA1PerNUv4y4NGJeBSoMACN
Q5toRJw/BOsmAgyGRRzu4nj3Ij4HUiZp1kDgYIvMsFcc1BYfX9S9HVhrlcRbD8RP
KBE1DQqLwp1uKDLSY+25JTad9XMvIHRNdqdEhPEpkUePhGN7CxQKEmmfp13VeaoM
HN3t+Sdztajsy74eZmyflqGQB24ZrGvGAecB7joKhDFor8b4i7cu0QFxuwQ8dJnm
0+iH6/bGWFevNpitHdA2klYjDLE6/SHRUNT2D64irWtN4pVezFiYsWAAdDJz+A4Q
eq3qPHn+xOYjUvf4Gj6vG29kvzhwYQ4AAkC/Ouy4tFikrfKq8+JseVdZ5gcpqW1j
UZgYvHf9ITRGRxI3pSQXnup8aVlrKFuNtZ6bRZkcrSnFoh7TR1MCL7a+qL5Pl9A4
2AfzIjX3SwuEnWgW04H46fgmlprsSO3lhUxhqViWhrRmMG0W3lkUl9xjWiXpz0fL
vip7b4+mbWqyVCye/B7bmrhHxCbx8etpqU+4qO83sLakoUW4xrgpjh3WTKyFyaAf
cBsDf5yhqDTQKWUAf+N1+IpOSnbQ4bXx4iNtuCuq9yrnkGXT27UNkYym8e36cMQl
NiDQZeF2CUb80sJqkQJxKBKHY6loH7pI67OGHw1xjA2BZVLn3L24qRT7IB9PQTdZ
7kZ0EtkLpLN/QmWixA2bVPTb5M7Go33deoxAgHUBX8Vo8H0b9Jlis40I5WSibUVb
GffMF1G9GUjmMHbwGJv10MYlhpFW8fzVG9B2qLmnPmZ7gJuohcW4bxrY21f/vGD4
ViF6LFZXVst4/BzhPUJWqY8DocLo3qqP+hwGFR7sCs1adW8AV8zhQMYYys3q8/3b
9WRd9nXCNar8fEagVIMnJEnLnHY/i9ejHCEZFGDaLEcVhqTPEbqtTREdZniWjaXy
Aio9xiFfh9SNnvcRSt8jn0/a/wy9cy2GOP0423uNHtHFdVSWhVmlbgR8ulq++YUt
c73W7p1NIPrqJBToVxxuK9JlXwILig9TrGbsWBZp8eg7hViJfRtp2NTtExVyGg4b
rDWF4nXAJOt6f4bB76KOAPS+lKDHATMERrCyX9/htYLryuep2cYcH+yGaQegWOxx
kXgpMsQeEkHT0nodo+2AFP5sX5mhX/sM/80EE3ZIB1qWGL0+tWulfu1/NnSRnqOT
U2F9USdny2lE0jE9kak3HKGeV4MRtV/U1t0/N0002z8CsFNMKeWLujl8UUvmHfYs
B8dOPrzX77W/U8ViHvOzxbDUQ/jcC8RYYak34u8kKJWmRd03a9/I/vUzkDLMjT0r
SdiHLhCKibUDYgvOUnniI1KHhLihREupJuHufIzqlNdQVkyCQOREzqZPoifACHhn
g/lPdXTENg4ZWro+qJPmFA6tapUzCh3RypC/oNIcHcZzRaAje91XEi40aIKjm9BV
REcdel5nacrC0SDrpbfIL2nHsqHMZSVIqq3ZWrEoHvazMTQuCpW57rhy+zMh3fVs
qNwgcButO0pfut2swS4Sa8MKx0Et69bkQbrCjoqxyCGOgcK7LKKu5p9BIhdoARTt
B07olkxtSPCzJflGBir3tqsqM9nFKxc3sJrIAYvG5uILd2xgZhN+w5JEPjp1zrjC
5G/5SaWngydyal/ypFknhRAnuQGXFYIn0GnlW51IeDC95uPidq5/Z1zOU82rfSv9
koJfgjHwpKC7DqYL1kJpZBrVdwUxntVdhYXaHkQPhaV4xw0KUSG5xQl8edB0I6Id
UtZN9AZp9cBnzHwabFaw2g2AfRd69stREPYUug2sHG2UzdFzRk6TPSlAOrU+Xizt
zTdT7E9XjLuY3CDqkFRDY/2VakS2plOJTaPBo7c0FTQRKexynINvpN/R84A/kfU3
OeOUfsTOCptX4xkNkdFwO3rDGdp42uZzXMK4ZKL9+1pAkNEsrx1hYK8PGZiUzBl4
YixOWeZzbre0Ev4SLZ/N0xA8ZXwbyy4FY0pHNAL4ms3dyKKwlvqkeN8G1ZgLFKTW
RnbcSJYC0hv71cm4JMtKB8P0S0P+AWhuoEyD11fC3QRQRp03MkUyoHYpeBqPxB0I
8ePf6xiGLqUvm63OgVrfm77bBW8x3jPVogzEJnuKpJfp8OQCTE2Li2YlHqbvOYxJ
zpy9Xhe8RD05q0c/YQJySbr+BaR11cLRHdxsTuzcj1jHOmZVB+ltvfNiJaxShw3I
GYnVzfAQrSW6L98wsnorZyNrHGKYFrM1nDYvE5NCDaSgw4TiLTIE9WErPsxw+xIp
f2/ETpoP4Nh1e07shAKrlNZsPFKqQW2gKDnKPxVsOntqt5jVyapPmxYGJCh+yLkq
SROQR59IdLDn1K/UKHyhhBTkpriozawn+u2rZBEmCpC9dmydl2kb7TZHh9S/Z4DG
XrOMHj/3bRuCf/vNPXz4UuvtbBUcn952X3nFx7wLHQ79519loFRsckgbk8+CS7pu
WS9hto2DSEDtB1RxZdDE9pRbabpBX051MMpMa/vTLTF3uJlzUur4F0m6Gu3+9Xbg
J566J3D4zUVUwnQt6yH4IbYslNhYtC0Xeh3+8WGgae56B9Ev4D3YiR0jGHgx4iOl
pCx3i6Fzx/DMNV4TnLC9xY1C8cn0XKVSCIwar1hN4DGwn8YWpVwWZoQie0AnnXhq
2cZkrXoPYFErHgyK4TQfikOwffEHSOXh0CGJkOZa4dbVeLmJn8fKv5NmsbnQJOru
UpQLRhE2HsdL6Gd53/wGB5FFEGy8dU837SvxS7TMQ55/2EJrX4b23SwbS3Mq8IyS
Clv3E8BeaO0IqrElEGaB6mERT+mRDbmJj5iwfoGdnd7Kv/CCsqEaaoUrxDPQMyxf
iHHfWy6K46vv2SOV2v3fHMl+0L6FPs9a866TGu1IbUjV4GQ65vSi0D2mQfMfyGfg
sACfZJrRmdjWldYHx775uZFKB6VkBGK2LSMLm7UFZDsTm3Jd80NjVr3QbqfgZJv9
wZ5zZ/E19l7G4UGFwckpV2HoEvnNq5AR6djWsFSfXFRKpj9zyIIKV66ZvnEZ5vUp
GtPx0OLC2D2ZWrUd7zQbV53D8jyyaO0Zs2sbM+AhmmOy/2LhHn2389Vv1alMzJFf
5IgQaYUcOCbMf9K/GWIHpB7aza5Tryg7gr8xg8iFmwHeeQu9RCVh6MSyYACtMBdL
7H3xKuh3P80twKa6d4XsDak+BCro/viMTDk5xrocel8aqY/AEHzwAwhuR4/xt9p1
TKydNiFgWDC4Fd4Y62Y7m36gR0Db63F44XTdXT174NVOKUa+qv0QvrIJv0yGxCZs
BuFNfVwLBl0bPgaywJQdZf3Blv0QywtRwbZb31eUndRYVn75tEnhjN1DblYXi0Wi
0wHhWU+px5UcYyP+U/1/o9+euQZRxWQiUY3f9/vorOhT8Algu1YqO8BxaYz9fItY
Pp+seQQjBJtDf4CauDcoTzqOT8wDDkkNWGZIbVaYiseJoz6CVxcAgJGmwYpT0uVM
ehVfnJgAmVtZm/yTBpL6ktuDj/MWwHnd2ehnsp9zQALSdDctTB+0ylqHSYrDiIzq
72aNSu9jdwVjRTpIRrCTczOwVBl1EhLBWVLyPlj5xdx3YYdqkKvZlmYoB3bRh6/O
l5mOYPlL6QWBrNIPIHJGYIRqnKnXWKMRf3RwoIlQjWMCQSBdvL9LZrsKZI4oAWk6
7GjIWGG2BalDCIuc3nX7N6aWsn847oVgE4nhNPoBfetOD2uW7J5OOKB8ywYNaM6s
IC3JxQYE/fiwbiXduCfjHLmBA6mm9Yl0uLfIdOI45uydmzuHIG6dM0dgYXfsooHI
pAUsgFvfVmtPMfLYte0MwAqat4zGKogLnw70ut6TYr1rpgeUQJR87eEwOgKEt/F7
BV9d9mI51IkzfTDgUQYFz9fbM3E/yIZFxfVpH3LFokha+Z4R6Ao9iH3ExKKySnnN
IEBYarfmOte8NiZToI8hOwFB31uxeyV56en1B9ZvMYkaGDvD/wJbnODJlmUY3+I5
CAHKimVxefIwa8CG+tvBuNl0bONYozPOIVM3dYt/ki/B9vDr0WCYjqYvx6GdcOHH
8/ZjtsEfrbdWFzfYel/mA/MGF+2i2rG5FZBFSsazmIkDvef3Aiy2Udhq4gxn7TjI
Fma0edEl1CjBb4oWvBdJQj7n+L3PeYnIuOGigGFkbiT3GMpWi/ZoJWu79FHryKHp
rj4tBUDDRbibH2if3BchCjZVrog/adA/hHkAq7qtN3WbamSCyGV62e3fbod8m2/V
mPKuKN3zekTjwOx6ohnkmLOb9eEDpaToRCWclXdAshfq1FpopdjOdpKt2Zw1s3kp
Y3cDsyqijByx8x2hB1Bym/l0ghSeLUO8gOaI+Y+LYkinMRC0QI6jn+LzxKPSgllN
SWKG1Pcjo59QZ3YMt/UFKCPB6PYXdThB3NmGC+aBOv88TfAJ7b0e69z/oKEsNDr9
/SHCOEkSnV+wGPRVlBHSXZz9gDJrYVaVesmV8uQSHk06ij1+2Aa2wQodnEST2YHX
T4OXatKaD7hY6ShzHRkM7tfcAD7XrG5YTo93pTptOMaoht/sjbnH1tJsLcMXdV4N
+dRQUG25LCCwB6bLiMhdDEBtgClyyxfjynGgc8IWAc2rhbHlqHpXHKttz+2081OR
r3IWlhYV5JLqscTnZBM+jCOyrqDARrLUqVjT58PO5FeZd3KxBsijHQqZHkeQVKP8
mdF+TuG3axXXDTJhPgab2MX/VMrkZm9bxWZgd/L3UR5YtcJhpzfr3YdY/pomRudq
IR8o1yTttBHQLvM50YBeuiGMq+JCDXSY921escasohzn37u6Yai/C8aFTlV8zABF
Pg74Dj1njdAamwsRxByjhJBJGtoNbJkaY/FMK6rTE7Te98abLJTJMr72onllEi1A
2BbI8SZNiTq/s9mZWtHcQsR2Ml5h0FCyiT0ZkJLNJP+foifTCGj2LWX0b5ABV+OF
4B5TbKEjsgv274XuabNT3tY9fDENMmeXqCy9PtGI/J0XUtpGMM9BGYmt4tqFr9gZ
DAsGKlgNzSRkn0HR/ZzQdoXZpCINJnfYxtHekC9ygAThIJ2PdCW7gymljo8Tj6bB
oM4e9qCTf5BrfzLoLsIbitD6o+PQ3qECjvUSm/obyWeJsVD5OK/yb+x/Uqtyf9w1
VtCsOhZNlhD1aSvYRhkAY1pSO6vryUsaeg4zRBn70gikeMocXeCIVG+n2hqSryY8
IaDNt/kthhBUQJngbElc0uo3oYQ8FLvERxWzuBEp0onzQZNbmCNSLRAUsx6cTRJw
ySz3tfbSIqrESFYOu6lsH8XoP2hlpXo/G2E2cu8+fY+v4IooQEAinyyjy8qIWvUq
095tsivbzGUunjeqIp20OZY1irKQXKS3zNlMkOwkRjQ4N7pJd2SMBEzVMs74V2c0
jMVr+3dgSzHvKka5TAG5qFDdIUiO62pRH17u5dN2QbSt2ABW40hkcdB29aZANc1t
/hR8bLZ2ffEkvY9Qjs3lq+LU9I/2EStWqk3xy62471Cjhs4Dc8pZoV8XlRITfKa+
9ybK9KzfUwAZ9YUKo90F6OjOzPSvX21LUT4uoIVHZGss6NNmZTIzrfmYQXtT30AO
Hu21DM0t/DO0+qqPT27N4Syyuo+f56QSm/VyQUwNM7l1irN6ObiiTZsRQ3Q8FKsn
cE8U58MifePEB3HizTmbn1SvTcOU3CtMH+hOGQkZzvEGTFXousSFPlmKy2yIjNYS
GZosbcmcrIacoXnrI8zTmBYjmZ8h+4eT3OJxZJm62UNVzT0F0eBaNifa571ERlSs
s6lYfLYf82FA5jwYFnoIMq2mPvttViWRLZg4q3aEAcz792pYlKf8hgOGZIXYZE3z
WrcY1tf3zNS2CTzbgYVSawwmHv5gCFR7T+rrtXpE+plZtkf0o0YC4OGKOQHHq2lC
s94tg/BCEV13T5u/sN9KOmkeqWQKE79iVycPdx1EwOhBc5yA7tlvVP7y54If1k6D
4SHzq9eXx1kxBZVYjkczkI1jR0i5OS79WaFlbFrfeklZEkv/PusQTY7sicPq2EhV
bUQj1M7mLY4/sQbhGBSEyyiPxM7vGYvtkV/5DKMMB/b8B4BxJAGoKW7X3543DM1m
6LMbE1I3dxu566irTR7cCtLTN7xj4NDykMfK7UT7N34Z6EfPDrohr+BT50nuclAn
A1Ciu9o0GHGZpTXSEmnaq5g07bAAJr5S4C48tpc4Wy9rx+GTDSk8+Id+r+v97ryf
RSfwAgiL/1pHVV5TB09l4BEQpw+saQhk4h5gJvdFOvKaPM/1P7O8BMcAJm1GonY9
zENKTl2+CdmuZ9wzkCJ/6cZfdTT+9f74AtvfGw7a0DpPM84GJGfb1Tgzwvcec5RL
xTO9kib5xz7637IyXVSR+e6SjKASmwCR2mkE7LLzuc9aiWpcSm3tIW8ElWa3H8Ks
8+JsWsgb8KlTJdxlf4f7qJzySU/mGjRwhSVLHjcXKkWEdx1N/UP6Jc/JuJ71zcxi
E4CiybLKhTb6EJbrF2XldgkKEVG1aT49CSSoOffI+hEda+2FzijMydAgpjlgmv73
ly0NfgF5w+mcL3nV/cIRD/n05vI4fgC41vf9DlbIgBs415fqOZwa7LC0pHVea4hV
sLtmht5h+AoVSGf6Sw8Zvpp2LiYGMaOXUvyXt4bDlC4XGKVq42E8H+8AtbCLVjYs
6wphddaHzoNhenOEAyT/h78W1AEaYb9p324aRTC+I55pgblhbD1AujwBXEIQr1Vo
Za4f4k8fQdsyFlSCSxb6FYTdQE/qa7FRF0j58NoLvqdn6s1AOFn+qN6DXstv3L5Q
5F1aGq7HJKp/NMd4uHgHdhUhMLW43u/u07d+/EebTIHF6G0ui0eeo+N9oVjHP40U
Ljt2lw/uOQWlcrN2LIiuRmLOsNjbMToAe0HT8nEwoINWOG8ViZoE2QKcin2Y6z04
uWZpKa3fD7zN+Rhx9c848glioDnSCQuiMg93RwCavKAP2UEX9xsqwDSbkFlv+Pb5
yPZKApwUWozOM7nR5i0BAnJg9gAQ/2iUvrT58j3QkQ4KiryR67XIYY+klbpacA6B
eaJx2LwcxD5/gYA/JD8oyZLPIS3TCn6tCJvDfxEesKa68R+iDRdd8qh1i79S+gCA
9GiWTaYv4c5ojK0Bi4rj5TRN9hXu8FE03iXZu4U4p5EUWdjy4Bg5FUoUSgIzIxFs
ibJHNHo3u/NBj/sP4SghGb3PEzVm+u4oDAfbsEs7hIRsHxr4S+6SwDN6OGogSoU3
aSSMULWzpk9DjuqslyDxtdwMXqmJsxnL1r2u8NvjBasj23wwYLqUnvDRD1715T2A
HuyowMWwwO4ZJSKszkwlJpX/F7vuHd+zTFOv26qgt7qw1a0cJgeABCj0X3OEOGAW
Fc581ZMbDheSsIDi+IfpACwBi5hH1zwDBskAM8Vueu1NxXF6uSiBovvaQpUJE45J
j/U2HL2O+RsfANr/Okr15XNo3jsHyFYRK/8nf0+ycVB7zHa0tGVK+TZV2UAIi6rq
uDvPYEFQSotl/E9jsiTMCDXnG4f44z0n96nH4lUg4J9xWItRiNVGBh5OrJT/dDb0
Gohas25HWis9ScyUmcypMm6KlIr7eAQKrImYqW8V/bWfEVyvZ+3y0d27acJiLovo
EnHNtXNIz9OeN31EyC241LJdRlzIbXipZLN07wQDMqzilmbFQGVZbiCa6OIRuhVF
K+IxHiFlpwnTkM7rRi7JKlTfmxi8o6FDhJkNwnH6je7mxtDzoCe4If01ASdqFitg
IKwsAk47e4Cr22m5pqiK0K3DxEXHe3DAzCQaU2NQyL+VefrOCzSBbahI4wmpIAIT
0P+R4f9RIIPYAKMEu8jRhl1ERxcI/e/GwW27LyzB/u8Y2YNGjhVbqrtIB2ylo29l
V5mM49s/m9eG+GepU/WSt16VEAcEEkSPQwNFQ9+7L/dOoBa9HOJKNXj17oEvZlcr
fT3IS2nGVHZywzUs5u12SaeEEXhjuBgriq/mIBuE0Al48z24VtMRkEERsn0jHo2r
8Gk27IYfQxy0sHt/9Iy2dY4xjGcfyUnr0UXIIUbc12q2422twgQtem/xH1yGfvYj
hq73weDwF291sTB5FuXsc5mcb1BJC7rPjkC9Qmwn0ydux1Czv8E5GeuTWq8k9x3B
rJya9X6AOma1whQdBP8ONJ6boZA9wx1l4qSA4gIa7d0ulr6r4pQR1gz1gfaMv0iY
jyu3MJ3S7oJ8F+jU+3ZZ3DRth77f5DpQPvvVS6Lz3AnwoUASVx3OV+MI1AGQfwUc
6cduYOJlZwMVfdprIx+ljLXVjQFSQU7m4TWikVxzo+kjiupLnCBj/bpTcPg77aBD
gcy9tPpOw+KXTP3qfYgSkg4FKsCZ3aBLXGdUQUYi/xXG748QfhnRq8bVMyy3i0y1
C/4OjupVVWqRtKDkCO7gWZ3gZkGa7iz0luFdIJBovcDdn9Btsl9QkfL+3x7XAMn6
6/CAM2bDAe2uQt5NAq1lKHk8iCueqbD6Eb08ZcOyEfMiFydhD5SakQ/yFWuxH/W4
242QPMeWqlWBik9oh4J5gNmvVUHtrd8TWqSqiPrUo7OUVDsZWLf3nvYupxiPf0+a
6F/V/PGBBv+nURtz8aGKJz+AoxhPPXaalkOw1tFd7Gvuq/tp+G/dus0EHlRPJxfn
eZ6GjYm8HclAX1g+Q7qIkloufuiQ5LDsBC8vKFVH1ra+HLezTfO1aS6arzU7DbbT
xpW0Zh89H9wiVBHoCZXb5uKTtr4zUS0mqHK6Z6I7Tk5QK4J/mRRSWw0HQO8yOSzO
SvBXsfZcOO5SPiVhA5+Y1Q==
=jp2J
-----END PGP MESSAGE-----
